!!!!SEGMENT: pl-cz--iii-118_daubeck-jozef--duetto.krn
!!!id: 17xx:221
!!!COM: Daubeck, Józef
!!!COM-rism: pe30086110
!!!CDT:
!!!CNT:
!!!OTL: Duetto
!!!PDT:
!!!SMS-siglum: PL-CZ
!!!SMS-shelfmark: III-118
!!!NIFC-rismID:
!!!URL-scan: http://repozytorium.nifc.pl/skany/pl-cz-nut--iii-118
!!!ONB-nifc:
**kern	**dynam	**kern	**dynam	**kern	**dynam	**kern	**text	**kern	**text	**kern	**dynam	**kern	**dynam	**kern	**dynam	**kern	**dynam
*part9	*part9	*part8	*part8	*part7	*part7	*part6	*part6	*part5	*part5	*part4	*part4	*part3	*part3	*part2	*part2	*part1	*part1
*group4	*	*group4	*	*group4	*	*group3	*	*group3	*	*group2	*	*group2	*	*group1	*	*group1	*
*staff9	*	*staff8	*	*staff7	*	*staff6	*staff6	*staff5	*staff5	*staff4	*	*staff3	*	*staff2	*	*staff1	*
*I"Baſso.	*	*I"Violino 2.do	*	*I"Violino Primo.	*	*I"Canto Secondo.	*	*I"Canto Primo.	*	*I"Cornu Secondo in F	*	*I"Cornu Primo in F.	*	*I"Oboe Secondo.	*	*I"Oboe Prima.	*
*I'B	*	*I'Vn II	*	*I'Vn I	*	*I'S II	*	*I'S I	*	*I'Cor II in F	*	*I'Cor I in F	*	*I'Ob II	*	*I'Ob I	*
*clefF4	*	*clefG2	*	*clefG2	*	*clefC1	*	*clefC1	*	*clefG2	*	*clefG2	*	*clefG2	*	*clefG2	*
*	*	*	*	*	*	*	*	*	*	*ITrd4c7	*	*ITrd4c7	*	*	*	*	*
*k[b-]	*	*k[b-]	*	*k[b-]	*	*k[b-]	*	*k[b-]	*	*k[b-]	*	*k[b-]	*	*k[b-]	*	*k[b-]	*
*F:	*	*F:	*	*F:	*	*F:	*	*F:	*	*	*	*	*	*F:	*	*F:	*
*M3/4	*	*M3/4	*	*M3/4	*	*M3/4	*	*M3/4	*	*M3/4	*	*M3/4	*	*M3/4	*	*M3/4	*
=1	=1	=1	=1	=1	=1	=1	=1	=1	=1	=1	=1	=1	=1	=1	=1	=1	=1
!	!	!.	!	!	!	!	!	!	!	!	!	!	!	!	!	!	!
!	!	!	!	!	!	!	!	!LO:TX:a:t=21.	!	!	!	!LO:TX:a:t=Solo	!	!	!	!	!
!LO:TX:a:B:t=Adagio&colon;	!	!LO:TX:a:B:t=Adagio	!	!LO:TX:a:B:t=Adagio&colon;	!	!LO:TX:a:B:t=Adagio	!	!LO:TX:a:B:t=Adagio.	!	!LO:TX:a:B:t=Adagio:	!	!LO:TX:a:B:t=Adagio:	!	!LO:TX:a:B:t=Adagio:	!	!LO:TX:a:B:t=Adagio:	!
!	!	!LO:TX:a:B:t=Duetto&colon;	!	!LO:TX:a:B:t=Duetto	!	!LO:TX:a:B:t=Duetto.	!	!LO:TX:a:B:t=Duetto.	!	!	!	!	!	!	!	!	!
!	!LO:DY:b	!	!	!	!LO:DY:b:t=po.	!LO:N:vis=00	!	!LO:N:vis=00	!	!	!	!	!	!	!	!	!
4F\	p	4ff 4cc 4f/	.	4ff 4cc 4f/	p	0.r	.	0.r	.	4f\	p	4a\	.	4a/	p	4ff\	p
!	!	!	!LO:DY:b:t=po.	!	!	!	!	!	!	!	!	!	!	!	!	!	!
4F\	.	4a/	p	4cc\	.	.	.	.	.	4a\	.	4cc\	.	4aa\	.	4ccc\	.
4F\	.	4a/	.	4cc\	.	.	.	.	.	4a\	.	4cc\	.	4aa\	.	4ccc\	.
=2	=2	=2	=2	=2	=2	=2	=2	=2	=2	=2	=2	=2	=2	=2	=2	=2	=2
*	*	*	*	*2\right	*	*	*	*	*	*2\right	*	*2\right	*	*2\right	*	*2\right	*
4F\	.	2a/	.	2cc\	.	.	.	.	.	2a\	.	2cc\	.	2aa\	.	2ccc\	.
4C/	.	.	.	.	.	.	.	.	.	.	.	.	.	.	.	.	.
4F\	.	8g/L	.	8b-/L	.	.	.	.	.	8g\L	.	8b-\L	.	8gg\L	.	8bb-\L	.
.	.	8f/J	.	8a/J	.	.	.	.	.	8f\J	.	8a\J	.	8ff\J	.	8aa\J	.
=3	=3	=3	=3	=3	=3	=3	=3	=3	=3	=3	=3	=3	=3	=3	=3	=3	=3
!LO:TX:t=P:problem:mixed beam	!	!	!	!	!	!	!	!	!	!	!	!	!	!	!	!	!
8C/L	.	16c/LL	.	8g/L	.	.	.	.	.	4c/	.	4g\	.	4cc\	.	4gg\	.
.	.	16c/	.	.	.	.	.	.	.	.	.	.	.	.	.	.	.
8c\	.	16c/	.	16c/L	.	.	.	.	.	.	.	.	.	.	.	.	.
.	.	16c/JJ	.	16c/JJ	.	.	.	.	.	.	.	.	.	.	.	.	.
*	*	*tremolo	*	*	*	*	*	*	*	*	*	*	*	*	*	*	*
8c\	.	16c/LL	.	8a/L	.	.	.	.	.	4f\	.	4a\	.	4ff\	.	4aa\	.
.	.	16c/	.	.	.	.	.	.	.	.	.	.	.	.	.	.	.
8c\	.	16c/	.	16c/L	.	.	.	.	.	.	.	.	.	.	.	.	.
.	.	16c/	.	16c/JJ	.	.	.	.	.	.	.	.	.	.	.	.	.
!	!	!	!	!LO:TX:t=P:problem:mixed beam	!	!	!	!	!	!	!	!	!	!	!	!	!
8c\	.	16c/	.	8b-\L	.	.	.	.	.	4g\	.	4b-\	.	4gg\	.	4bb-\	.
.	.	16c/	.	.	.	.	.	.	.	.	.	.	.	.	.	.	.
8c\J	.	16c/	.	16c/L	.	.	.	.	.	.	.	.	.	.	.	.	.
.	.	16c/JJ	.	16c/JJ	.	.	.	.	.	.	.	.	.	.	.	.	.
=4	=4	=4	=4	=4	=4	=4	=4	=4	=4	=4	=4	=4	=4	=4	=4	=4	=4
8F\L	.	16f/LL	.	16a\LL	.	.	.	.	.	8f\L	.	8a\L	.	8ff\L	.	8aa\L	.
.	.	16g/	.	16b-\	.	.	.	.	.	.	.	.	.	.	.	.	.
8F\	.	16a/	.	16cc\	.	.	.	.	.	8g\J	.	8b-\J	.	8gg\J	.	8bb-\J	.
.	.	16b-/JJ	.	16dd\JJ	.	.	.	.	.	.	.	.	.	.	.	.	.
8C\	.	8a/L	.	8cc/L	.	.	.	.	.	4a\	.	4cc\	.	4aa\	.	4ccc\	.
8C\	.	8a/	.	8a/	.	.	.	.	.	.	.	.	.	.	.	.	.
8F\	.	8f/	.	8f/	.	.	.	.	.	4f\	.	4a\	.	4ff\	.	4aa\	.
8F\J	.	8A/J	.	8f/J	.	.	.	.	.	.	.	.	.	.	.	.	.
=5	=5	=5	=5	=5	=5	=5	=5	=5	=5	=5	=5	=5	=5	=5	=5	=5	=5
!LO:TX:t=P:problem:mixed beam	!	!	!	!	!	!LO:N:vis=00	!	!LO:N:vis=00	!	!	!	!	!	!	!	!	!
8C/L	.	16c/LL	.	8g/L	.	0.r	.	0.r	.	4c/	.	4g\	.	4cc\	.	4gg\	.
.	.	16c/	.	.	.	.	.	.	.	.	.	.	.	.	.	.	.
8c\J	.	16c/	.	16c/L	.	.	.	.	.	.	.	.	.	.	.	.	.
.	.	16c/	.	16c/JJ	.	.	.	.	.	.	.	.	.	.	.	.	.
*tremolo	*	*	*	*	*	*	*	*	*	*	*	*	*	*	*	*	*
*2\right	*	*	*	*	*	*	*	*	*	*	*	*	*	*	*	*	*
8c\L	.	16c/	.	8a/L	.	.	.	.	.	4f\	.	4a\	.	4ff\	.	4aa\	.
.	.	16c/	.	.	.	.	.	.	.	.	.	.	.	.	.	.	.
8c\	.	16c/	.	16c/L	.	.	.	.	.	.	.	.	.	.	.	.	.
.	.	16c/	.	16c/JJ	.	.	.	.	.	.	.	.	.	.	.	.	.
!	!	!	!	!LO:TX:t=P:problem:mixed beam	!	!	!	!	!	!	!	!	!	!	!	!	!
8c\	.	16c/	.	8b-\L	.	.	.	.	.	4g\	.	4b-\	.	4gg\	.	4bb-\	.
.	.	16c/	.	.	.	.	.	.	.	.	.	.	.	.	.	.	.
8c\J	.	16c/	.	16c/L	.	.	.	.	.	.	.	.	.	.	.	.	.
.	.	16c/JJ	.	16c/JJ	.	.	.	.	.	.	.	.	.	.	.	.	.
=6	=6	=6	=6	=6	=6	=6	=6	=6	=6	=6	=6	=6	=6	=6	=6	=6	=6
!LO:LB:g=original	!	!	!	!	!	!	!	!	!	!	!	!	!	!LO:LB:g=original	!	!LO:LB:g=original	!
8F\L	.	16c/LL	.	16a/LL	.	.	.	.	.	8f/L	.	8a\L	.	8ff\L	.	8aa\L	.
.	.	16B-/	.	16g/	.	.	.	.	.	.	.	.	.	.	.	.	.
8C\J	.	16A/	.	16f/	.	.	.	.	.	8c/J	.	8g\J	.	8cc\J	.	8gg\J	.
.	.	16G/JJ	.	16e/JJ	.	.	.	.	.	.	.	.	.	.	.	.	.
4FF/	.	4A/	.	4f/	.	.	.	.	.	4A/	.	4f\	.	4a/	.	4ff\	.
!	!	!	!	!LO:LB:g=original	!	!	!	!	!	!	!	!	!	!	!	!	!
8r	.	8r	.	8r	.	.	.	.	.	4r	.	4r	.	8r	.	8r	.
!	!	!	!LO:DY:t=for	!	!	!	!	!	!	!	!	!	!	!	!	!	!
32F'\LLL	f	32f/LLL	f	32ff\LLL	.	.	.	.	.	.	.	.	.	(32ff\LLL	.	32ff\LLL	.
!	!	!	!	!	!LO:DY:b	!	!	!	!	!	!	!	!	!	!	!	!
32G'\	.	32g/	.	(32gg\	f	.	.	.	.	.	.	.	.	32gg\	.	(32gg\	.
!	!	!	!	!	!	!	!	!	!	!	!	!	!	!	!LO:DY:t=for:	!	!
32A'\	.	32a/	.	32aa\)	.	.	.	.	.	.	.	.	.	32aa\)	f	32aa\)	f
32B-'\JJJ	.	32b-/JJJ	.	32bb-\JJJ	.	.	.	.	.	.	.	.	.	32bb-\JJJ	.	32bb-\JJJ	.
=7	=7	=7	=7	=7	=7	=7	=7	=7	=7	=7	=7	=7	=7	=7	=7	=7	=7
!	!	!	!	!	!	!	!	!	!	!	!	!LO:LB:g=original	!	!	!	!	!
!	!	!	!	!	!	!	!	!	!	!	!LO:DY:a:t=for	!	!	!	!	!	!
8c\L	.	16cc\LL	.	16ccc\LL	.	.	.	.	.	4c/	f	4cc\	.	4ccc\	.	4ccc\	.
.	.	16cc\	.	16ccc\	.	.	.	.	.	.	.	.	.	.	.	.	.
8F\J	.	16cc\	.	16ccc\	.	.	.	.	.	.	.	.	f	.	.	.	.
.	.	16cc\JJ	.	16ccc\JJ	.	.	.	.	.	.	.	.	.	.	.	.	.
*	*	*	*	*tremolo	*	*	*	*	*	*	*	*	*	*	*	*	*
8F\L	.	16a/LL	.	16aa\LL	.	.	.	.	.	4A/	.	4a\	.	4aa\	.	4aa\	.
.	.	16a/	.	16aa\	.	.	.	.	.	.	.	.	.	.	.	.	.
8F\	.	16a/	.	16aa\	.	.	.	.	.	.	.	.	.	.	.	.	.
.	.	16a/JJ	.	16aa\JJ	.	.	.	.	.	.	.	.	.	.	.	.	.
8F\	.	16f/LL	.	16ff\LL	.	.	.	.	.	4F/	.	4f\	.	4ff\	.	4ff\	.
.	.	16f/	.	16ff\	.	.	.	.	.	.	.	.	.	.	.	.	.
8F\J	.	16f/	.	16ff\	.	.	.	.	.	.	.	.	.	.	.	.	.
.	.	16f/JJ	.	16ff\JJ	.	.	.	.	.	.	.	.	.	.	.	.	.
=8	=8	=8	=8	=8	=8	=8	=8	=8	=8	=8	=8	=8	=8	=8	=8	=8	=8
!	!	!LO:LB:g=original	!	!	!	!	!	!	!	!LO:LB:g=original	!	!	!	!	!	!	!
!	!	!	!	! przez 7 taktów	!	!	!	!	!	!	!	!	!	!	!	!	!
8F\L	.	16c/LL	.	16cc\LL	.	.	.	.	.	4c/	.	4cc\	.	4cc\	.	4cc\	.
.	.	16c/	.	16cc\	.	.	.	.	.	.	.	.	.	.	.	.	.
8F\	.	16c/	.	16cc\	.	.	.	.	.	.	.	.	.	.	.	.	.
.	.	16c/JJ	.	16cc\JJ	.	.	.	.	.	.	.	.	.	.	.	.	.
8F\	.	16a/LL	.	16a/LL	.	.	.	.	.	4A/	.	4a\	.	4a/	.	4a/	.
.	.	16a/	.	16a/	.	.	.	.	.	.	.	.	.	.	.	.	.
8F\	.	16a/	.	16a/	.	.	.	.	.	.	.	.	.	.	.	.	.
.	.	16a/JJ	.	16a/JJ	.	.	.	.	.	.	.	.	.	.	.	.	.
8F\	.	16f/LL	.	16f/LL	.	.	.	.	.	4F/	.	4f\	.	4f/	.	4f/	.
.	.	16f/	.	16f/	.	.	.	.	.	.	.	.	.	.	.	.	.
8F\J	.	16f/	.	16f/	.	.	.	.	.	.	.	.	.	.	.	.	.
.	.	16f/JJ	.	16f/JJ	.	.	.	.	.	.	.	.	.	.	.	.	.
=9	=9	=9	=9	=9	=9	=9	=9	=9	=9	=9	=9	=9	=9	=9	=9	=9	=9
!LO:TX:t=P:problem:mixed beam	!	!	!	!	!	!LO:N:vis=00	!	!LO:N:vis=00	!	!	!	!	!	!	!	!	!
8C/L	.	16b-/LL	.	16bb-\LL	.	0.r	.	0.r	.	4c/	.	4b-\	.	4bb-\	.	4bb-\	.
.	.	16b-/	.	16bb-\	.	.	.	.	.	.	.	.	.	.	.	.	.
8c\J	.	16b-/	.	16bb-\	.	.	.	.	.	.	.	.	.	.	.	.	.
.	.	16b-/JJ	.	16bb-\JJ	.	.	.	.	.	.	.	.	.	.	.	.	.
8c\L	.	16g/LL	.	16gg\LL	.	.	.	.	.	4c/	.	4g\	.	4gg\	.	4gg\	.
.	.	16g/	.	16gg\	.	.	.	.	.	.	.	.	.	.	.	.	.
8c\	.	16g/	.	16gg\	.	.	.	.	.	.	.	.	.	.	.	.	.
.	.	16g/JJ	.	16gg\JJ	.	.	.	.	.	.	.	.	.	.	.	.	.
8c\	.	16e/LL	.	16ee\LL	.	.	.	.	.	4C/	.	4g\	.	4ee\	.	4ee\	.
.	.	16e/	.	16ee\	.	.	.	.	.	.	.	.	.	.	.	.	.
8c\J	.	16e/	.	16ee\	.	.	.	.	.	.	.	.	.	.	.	.	.
.	.	16e/JJ	.	16ee\JJ	.	.	.	.	.	.	.	.	.	.	.	.	.
=10	=10	=10	=10	=10	=10	=10	=10	=10	=10	=10	=10	=10	=10	=10	=10	=10	=10
!	!	!	!	!	!	!	!	!	!	!	!	!	!	!	!	!	!
8C/L	.	16B-/LL	.	16b-/LL	.	.	.	.	.	4c/	.	4b-\	.	4b-/	.	4b-/	.
.	.	16B-/	.	16b-/	.	.	.	.	.	.	.	.	.	.	.	.	.
8C/	.	16B-/	.	16b-/	.	.	.	.	.	.	.	.	.	.	.	.	.
.	.	16B-/JJ	.	16b-/JJ	.	.	.	.	.	.	.	.	.	.	.	.	.
8C/	.	16G/LL	.	16g/LL	.	.	.	.	.	4c/	.	4g\	.	4g/	.	4g/	.
.	.	16G/	.	16g/	.	.	.	.	.	.	.	.	.	.	.	.	.
8C/	.	16G/	.	16g/	.	.	.	.	.	.	.	.	.	.	.	.	.
.	.	16G/JJ	.	16g/JJ	.	.	.	.	.	.	.	.	.	.	.	.	.
8C/	.	16B-/LL	.	16e/LL	.	.	.	.	.	4C/	.	4g\	.	4e/	.	4e/	.
.	.	16B-/	.	16e/	.	.	.	.	.	.	.	.	.	.	.	.	.
8C/J	.	16B-/	.	16e/	.	.	.	.	.	.	.	.	.	.	.	.	.
.	.	16B-/JJ	.	16e/JJ	.	.	.	.	.	.	.	.	.	.	.	.	.
=11	=11	=11	=11	=11	=11	=11	=11	=11	=11	=11	=11	=11	=11	=11	=11	=11	=11
8F\L	.	16cc\LL	.	16ccc\LL	.	.	.	.	.	4c/	.	4cc\	.	4ccc\	.	4ccc\	.
.	.	16cc\	.	16ccc\	.	.	.	.	.	.	.	.	.	.	.	.	.
8F\	.	16cc\	.	16ccc\	.	.	.	.	.	.	.	.	.	.	.	.	.
.	.	16cc\JJ	.	16ccc\JJ	.	.	.	.	.	.	.	.	.	.	.	.	.
8F\	.	16a/LL	.	16aa\LL	.	.	.	.	.	4A/	.	4a\	.	4aa\	.	4aa\	.
.	.	16a/	.	16aa\	.	.	.	.	.	.	.	.	.	.	.	.	.
8F\	.	16a/	.	16aa\	.	.	.	.	.	.	.	.	.	.	.	.	.
.	.	16a/JJ	.	16aa\JJ	.	.	.	.	.	.	.	.	.	.	.	.	.
8F\	.	16f/LL	.	16ff\LL	.	.	.	.	.	4F/	.	4f\	.	4ff\	.	4ff\	.
.	.	16f/	.	16ff\	.	.	.	.	.	.	.	.	.	.	.	.	.
8F\J	.	16f/	.	16ff\	.	.	.	.	.	.	.	.	.	.	.	.	.
.	.	16f/JJ	.	16ff\JJ	.	.	.	.	.	.	.	.	.	.	.	.	.
=12	=12	=12	=12	=12	=12	=12	=12	=12	=12	=12	=12	=12	=12	=12	=12	=12	=12
8F\L	.	16c/LL	.	16cc\LL	.	.	.	.	.	4c/	.	4cc\	.	4cc\	.	4cc\	.
.	.	16c/	.	16cc\	.	.	.	.	.	.	.	.	.	.	.	.	.
8F\	.	16c/	.	16cc\	.	.	.	.	.	.	.	.	.	.	.	.	.
.	.	16c/JJ	.	16cc\JJ	.	.	.	.	.	.	.	.	.	.	.	.	.
8F\	.	16A/LL	.	16a/LL	.	.	.	.	.	4A/	.	4a\	.	4a/	.	4a/	.
.	.	16A/	.	16a/	.	.	.	.	.	.	.	.	.	.	.	.	.
8F\	.	16A/	.	16a/	.	.	.	.	.	.	.	.	.	.	.	.	.
.	.	16A/JJ	.	16a/JJ	.	.	.	.	.	.	.	.	.	.	.	.	.
8F\	.	16A/LL	.	16f/LL	.	.	.	.	.	4F/	.	4f\	.	4f/	.	4f/	.
.	.	16A/	.	16f/	.	.	.	.	.	.	.	.	.	.	.	.	.
8F\J	.	16A/	.	16f/	.	.	.	.	.	.	.	.	.	.	.	.	.
.	.	16A/JJ	.	16f/JJ	.	.	.	.	.	.	.	.	.	.	.	.	.
=13	=13	=13	=13	=13	=13	=13	=13	=13	=13	=13	=13	=13	=13	=13	=13	=13	=13
!	!	!	!	!LO:LB:g=original	!	!	!	!	!	!	!	!	!	!LO:LB:g=original	!	!LO:LB:g=original	!
!LO:TX:t=P:problem:mixed beam	!	!	!	!	!	!LO:N:vis=00	!	!LO:N:vis=00	!	!	!	!	!	!	!	!	!
8C/L	.	16b-/LL	.	16bb-\LL	.	0.r	.	0.r	.	4c/	.	4b-\	.	4bb-\	.	4bb-\	.
.	.	16b-/	.	16bb-\	.	.	.	.	.	.	.	.	.	.	.	.	.
8c\J	.	16b-/	.	16bb-\	.	.	.	.	.	.	.	.	.	.	.	.	.
.	.	16b-/JJ	.	16bb-\JJ	.	.	.	.	.	.	.	.	.	.	.	.	.
8c\L	.	16g/LL	.	16gg\LL	.	.	.	.	.	4c/	.	4g\	.	4gg\	.	4gg\	.
.	.	16g/	.	16gg\	.	.	.	.	.	.	.	.	.	.	.	.	.
8c\	.	16g/	.	16gg\	.	.	.	.	.	.	.	.	.	.	.	.	.
.	.	16g/JJ	.	16gg\JJ	.	.	.	.	.	.	.	.	.	.	.	.	.
8c\	.	16e/LL	.	16ee\LL	.	.	.	.	.	4C/	.	4g\	.	4ee\	.	4ee\	.
.	.	16e/	.	16ee\	.	.	.	.	.	.	.	.	.	.	.	.	.
8c\J	.	16e/	.	16ee\	.	.	.	.	.	.	.	.	.	.	.	.	.
.	.	16e/JJ	.	16ee\JJ	.	.	.	.	.	.	.	.	.	.	.	.	.
=14	=14	=14	=14	=14	=14	=14	=14	=14	=14	=14	=14	=14	=14	=14	=14	=14	=14
!LO:LB:g=original	!	!	!	!	!	!	!	!	!	!	!	!	!	!	!	!	!
8C/L	.	16B-/LL	.	16b-/LL	.	.	.	.	.	4c/	.	4b-\	.	4b-/	.	4b-/	.
.	.	16B-/	.	16b-/	.	.	.	.	.	.	.	.	.	.	.	.	.
8C/	.	16B-/	.	16b-/	.	.	.	.	.	.	.	.	.	.	.	.	.
.	.	16B-/JJ	.	16b-/JJ	.	.	.	.	.	.	.	.	.	.	.	.	.
8C/	.	16G/LL	.	16g/LL	.	.	.	.	.	4c/	.	4g\	.	4g/	.	4g/	.
.	.	16G/	.	16g/	.	.	.	.	.	.	.	.	.	.	.	.	.
8C/	.	16G/	.	16g/	.	.	.	.	.	.	.	.	.	.	.	.	.
.	.	16G/JJ	.	16g/JJ	.	.	.	.	.	.	.	.	.	.	.	.	.
8C/	.	16G/LL	.	16e/LL	.	.	.	.	.	4C/	.	4g\	.	4e/	.	4e/	.
.	.	16G/	.	16e/	.	.	.	.	.	.	.	.	.	.	.	.	.
8C/J	.	16G/	.	16e/	.	.	.	.	.	.	.	.	.	.	.	.	.
.	.	16G/JJ	.	16e/JJ	.	.	.	.	.	.	.	.	.	.	.	.	.
*	*	*	*	*Xtremolo	*	*	*	*	*	*	*	*	*	*	*	*	*
=15	=15	=15	=15	=15	=15	=15	=15	=15	=15	=15	=15	=15	=15	=15	=15	=15	=15
*	*	*2\right	*	*	*	*	*	*	*	*	*	*	*	*	*	*	*
8F\L	.	16cc\LL	.	8aa\L	.	.	.	.	.	4f\	.	4a\	.	4ff\	.	4aa\	.
.	.	16cc\	.	.	.	.	.	.	.	.	.	.	.	.	.	.	.
8F\	.	16cc\	.	8ff\	.	.	.	.	.	.	.	.	.	.	.	.	.
.	.	16cc\	.	.	.	.	.	.	.	.	.	.	.	.	.	.	.
8F\	.	16cc\	.	8aa\	.	.	.	.	.	4f\	.	4a\	.	4ff\	.	4aa\	.
.	.	16cc\	.	.	.	.	.	.	.	.	.	.	.	.	.	.	.
8F\J	.	16cc\	.	8ff\J	.	.	.	.	.	.	.	.	.	.	.	.	.
.	.	16cc\	.	.	.	.	.	.	.	.	.	.	.	.	.	.	.
!LO:TX:t=P:problem:mixed beam	!	!	!	!	!	!	!	!	!	!	!	!	!	!	!	!	!
8c\L	.	16cc\	.	16bb-\LL	.	.	.	.	.	4g\	.	4b-\	.	4gg\	.	4bb-\	.
.	.	16cc\	.	16gg\	.	.	.	.	.	.	.	.	.	.	.	.	.
8C/J	.	16cc\	.	16ee\	.	.	.	.	.	.	.	.	.	.	.	.	.
.	.	16cc\JJ	.	16cc\JJ	.	.	.	.	.	.	.	.	.	.	.	.	.
=16	=16	=16	=16	=16	=16	=16	=16	=16	=16	=16	=16	=16	=16	=16	=16	=16	=16
!	!	!	!	!	!	!	!	!	!	!	!	!LO:LB:g=original	!	!	!	!	!
8F\L	.	16cc\LL	.	8aa\L	.	.	.	.	.	4f\	.	4a\	.	4ff\	.	4aa\	.
.	.	16cc\	.	.	.	.	.	.	.	.	.	.	.	.	.	.	.
8F\	.	16cc\	.	8ff\	.	.	.	.	.	.	.	.	.	.	.	.	.
.	.	16cc\	.	.	.	.	.	.	.	.	.	.	.	.	.	.	.
8F\	.	16cc\	.	8aa\	.	.	.	.	.	4f\	.	4a\	.	4ff\	.	4aa\	.
.	.	16cc\	.	.	.	.	.	.	.	.	.	.	.	.	.	.	.
8F\J	.	16cc\	.	8ff\J	.	.	.	.	.	.	.	.	.	.	.	.	.
.	.	16cc\	.	.	.	.	.	.	.	.	.	.	.	.	.	.	.
*Xtremolo	*	*	*	*	*	*	*	*	*	*	*	*	*	*	*	*	*
!LO:TX:t=P:problem:mixed beam	!	!	!	!	!	!	!	!	!	!	!	!	!	!	!	!	!
8c\L	.	16cc\	.	16bb-\LL	.	.	.	.	.	4g\	.	4b-\	.	4gg\	.	4bb-\	.
.	.	16cc\	.	16gg\	.	.	.	.	.	.	.	.	.	.	.	.	.
8C/J	.	16cc\	.	16ee\	.	.	.	.	.	.	.	.	.	.	.	.	.
.	.	16cc\JJ	.	16cc\JJ	.	.	.	.	.	.	.	.	.	.	.	.	.
*	*	*Xtremolo	*	*	*	*	*	*	*	*	*	*	*	*	*	*	*
=17	=17	=17	=17	=17	=17	=17	=17	=17	=17	=17	=17	=17	=17	=17	=17	=17	=17
!	!	!LO:LB:g=original	!	!	!	!	!	!	!	!	!	!	!	!	!	!	!
!LO:TX:t=P:problem:mixed beam	!	!	!	!	!	!LO:N:vis=00	!	!LO:N:vis=00	!	!	!	!	!	!	!	!	!
8BB-/L	.	16bb-\LL	.	16ddd\LL	.	0.r	.	0.r	.	4f\	.	4a\	.	8gg\L	.	8bb-\L	.
.	.	16bb-\	.	16ddd\	.	.	.	.	.	.	.	.	.	.	.	.	.
8B-\	.	16gg\	.	16bb-\	.	.	.	.	.	.	.	.	.	8aa\J	.	8ccc\J	.
.	.	16gg\JJ	.	16bb-\JJ	.	.	.	.	.	.	.	.	.	.	.	.	.
8BB-/	.	16bb-\LL	.	16ddd\LL	.	.	.	.	.	4a\	.	4cc\	.	4bb-\	.	4ddd\	.
.	.	16bb-\	.	16ddd\	.	.	.	.	.	.	.	.	.	.	.	.	.
8B-\	.	16gg\	.	16bb-\	.	.	.	.	.	.	.	.	.	.	.	.	.
.	.	16gg\JJ	.	16bb-\JJ	.	.	.	.	.	.	.	.	.	.	.	.	.
8BB-/	.	16bb-\LL	.	16ddd\LL	.	.	.	.	.	4f\	.	4a\	.	4gg\	.	4bb-\	.
.	.	16bb-\	.	16ddd\	.	.	.	.	.	.	.	.	.	.	.	.	.
8B-\J	.	16gg\	.	16bb-\	.	.	.	.	.	.	.	.	.	.	.	.	.
.	.	16gg\JJ	.	16bb-\JJ	.	.	.	.	.	.	.	.	.	.	.	.	.
=18	=18	=18	=18	=18	=18	=18	=18	=18	=18	=18	=18	=18	=18	=18	=18	=18	=18
!	!	!	!	!LO:LB:g=original	!	!	!	!	!	!LO:LB:g=original	!	!	!	!	!	!	!
!	!	!	!	!	!	!	!	!	!	!	!	!	!	!	!	!	!
*	*	*tremolo	*	*tremolo	*	*	*	*	*	*	*	*	*	*	*	*	*
8F\L	.	16ff\LL	.	16aa\LL	.	.	.	.	.	4f\	.	4a\	.	4ff\	.	4aa\	.
.	.	16ff\	.	16aa\	.	.	.	.	.	.	.	.	.	.	.	.	.
8F\	.	16ff\	.	16aa\	.	.	.	.	.	.	.	.	.	.	.	.	.
.	.	16ff\JJ	.	16aa\JJ	.	.	.	.	.	.	.	.	.	.	.	.	.
8C\	.	16ee\LL	.	16gg\LL	.	.	.	.	.	4c/	.	4g\	.	4ee\	.	4gg\	.
.	.	16ee\	.	16gg\	.	.	.	.	.	.	.	.	.	.	.	.	.
8C\	.	16ee\	.	16gg\	.	.	.	.	.	.	.	.	.	.	.	.	.
.	.	16ee\JJ	.	16gg\JJ	.	.	.	.	.	.	.	.	.	.	.	.	.
8F\	.	16ff\LL	.	16aa\LL	.	.	.	.	.	4f\	.	4a\	.	4ff\	.	4aa\	.
.	.	16ff\	.	16aa\	.	.	.	.	.	.	.	.	.	.	.	.	.
8F\J	.	16ff\	.	16aa\	.	.	.	.	.	.	.	.	.	.	.	.	.
.	.	16ff\JJ	.	16aa\JJ	.	.	.	.	.	.	.	.	.	.	.	.	.
*	*	*Xtremolo	*	*Xtremolo	*	*	*	*	*	*	*	*	*	*	*	*	*
=19	=19	=19	=19	=19	=19	=19	=19	=19	=19	=19	=19	=19	=19	=19	=19	=19	=19
!LO:TX:t=P:problem:mixed beam	!	!	!	!	!	!	!	!	!	!	!	!	!	!	!	!	!
8B-\L	.	8gg\L	.	8bb-\L	.	.	.	.	.	4g\	.	8b-\L	.	8gg\L	.	8bb-\L	.
8B-\	.	8b-\J	.	8gg\J	.	.	.	.	.	.	.	8b-\J	.	8b-\J	.	8gg\J	.
8c\	.	4a/	.	4ff\	.	.	.	.	.	4f\	.	4a\	.	4a/	.	4ff\	.
8c\	.	.	.	.	.	.	.	.	.	.	.	.	.	.	.	.	.
8C/	.	4g/	.	4ee\	.	.	.	.	.	4c/	.	4g\	.	4g/	.	4ee\	.
8C/J	.	.	.	.	.	.	.	.	.	.	.	.	.	.	.	.	.
=20	=20	=20	=20	=20	=20	=20	=20	=20	=20	=20	=20	=20	=20	=20	=20	=20	=20
!	!	!	!	!	!	!	!	!	!	!	!	!	!	!LO:LB:g=original	!	!LO:LB:g=original	!
4F\	.	4a/	.	4ff\	.	.	.	.	.	4A/	.	4f\	.	4a/	.	4ff\	.
4F\	.	8a/L	.	8ff\L	.	.	.	.	.	8A/L	.	8f\L	.	8a/L	.	8ff\L	.
.	.	8cc/	.	8aa\	.	.	.	.	.	8c/	.	8a\	.	8cc/	.	8aa\	.
4F\	.	8a/	.	8ff\	.	.	.	.	.	8A/	.	8f\	.	8a/	.	8ff\	.
.	.	8cc/J	.	8aa\J	.	.	.	.	.	8c/J	.	8a\J	.	8cc/J	.	8aa\J	.
=21	=21	=21	=21	=21	=21	=21	=21	=21	=21	=21	=21	=21	=21	=21	=21	=21	=21
!LO:LB:g=original	!	!	!	!	!	!	!	!	!	!	!	!	!	!	!	!	!
4F\	.	4a/	.	4ff\	.	2.r	.	2.r	.	4A/	.	4f\	.	4a/	.	4ff\	.
!LO:TX:a:t=P:problem:podwójna kreska taktowa (po raz w takcie)podobna do nawiasu, otwarta w lewo	!	!	!	!	!	!	!	!	!	!	!	!	!	!	!	!	!
8c'\L	.	4r	.	4r	.	.	.	.	.	4r	.	4r	.	4r	.	4r	.
8B-'\	.	.	.	.	.	.	.	.	.	.	.	.	.	.	.	.	.
!	!	!LO:TX:a:t=P:problem:podwójna kreska taktowa podobna do nawiasu, otwarta w lewo	!	!LO:TX:a:t=P:problem:podwójna kreska taktowa podobna do nawiasu, otwarta w lewo	!	!	!	!	!	!LO:TX:a:t=P:problem:podwójna kreska taktowa podobna do nawiasu, otwarta w lewo	!	!LO:TX:a:t=P:problem:podwójna kreska taktowa podobna do nawiasu, otwarta w lewo	!	!LO:TX:a:t=P:problem:podwójna kreska taktowa podobna do nawiasu, otwarta w lewo	!	!LO:TX:a:t=P:problem:podwójna kreska taktowa podobna do nawiasu, otwarta w lewo	!
8A'\	.	4r	.	4r	.	.	.	.	.	4r	.	4r	.	4r	.	4r	.
!	!	!	!	!	!	!LO:TX:a:t=P:problem:podwójna kreska taktowa podobna do nawiasu, otwarta w lewo	!	!LO:TX:a:t=P:problem:wężowate segno	!	!	!	!	!	!	!	!	!
8G'\J	.	.	.	.	.	.	.	.	.	.	.	.	.	.	.	.	.
=22||	=22||	=22||	=22||	=22||	=22||	=22||	=22||	=22||	=22||	=22||	=22||	=22||	=22||	=22||	=22||	=22||	=22||
!LO:TX:a:t=Solo	!	!LO:N:vis=00	!	!LO:N:vis=00	!	!	!	!	!	!LO:TX:a:t=Solo	!	!	!	!LO:TX:a:t=Solo	!	!	!
4F\	.	0.r	.	0.r	.	4a\	Gau-	4ff\	Gau-	4r	.	4r	.	4a/	.	4ff\	p
4F\	.	.	.	.	.	4a\	-de	4cc\	-de	4a\	.	4cc\	p	4a/	.	4ccc\	.
4F\	.	.	.	.	.	8a\L	De-	8cc\L	De-	4a\	.	4cc\	.	4a/	.	4ccc\	.
.	.	.	.	.	.	8a\J	-i	8cc\J	-i	.	.	.	.	.	.	.	.
=23	=23	=23	=23	=23	=23	=23	=23	=23	=23	=23	=23	=23	=23	=23	=23	=23	=23
*	*	*	*	*	*	*2\right	*	*2\right	*	*	*	*	*	*	*	*	*
4F\	.	.	.	.	.	2a\	ge-	2cc\	Ge-	2a\	.	2cc\	.	2aa\	.	2ccc\	.
4F\	.	.	.	.	.	.	.	.	.	.	.	.	.	.	.	.	.
4F\	.	.	.	.	.	8g/L	-ni-	8b-\L	-ni-	8g\L	.	8b-\L	.	8gg\L	.	8bb-\L	.
.	.	.	.	.	.	8f/J	-trix	8a\J	-trix	8f\J	.	8a\J	.	8ff\J	.	8aa\J	.
=24	=24	=24	=24	=24	=24	=24	=24	=24	=24	=24	=24	=24	=24	=24	=24	=24	=24
!	!	!	!	!	!	!	!	!	!	!	!	!LO:LB:g=original	!	!	!	!	!
!	!	!	!	!	!	!	!	!	!	!	!	!	!	!	!	!	!
*tremolo	*	*	*	*	*	*	*	*	*	*	*	*	*	*	*	*	*
8C/L	.	.	.	.	.	4e/	vir-	4g\	Vir-	4c/	.	4g\	.	4ee\	.	4gg\	.
8C/	.	.	.	.	.	.	.	.	.	.	.	.	.	.	.	.	.
8C/	.	.	.	.	.	4f/	-go	4a\	-go	4f\	.	4a\	.	4ff\	.	4aa\	.
8C/	.	.	.	.	.	.	.	.	.	.	.	.	.	.	.	.	.
8C/	.	.	.	.	.	4g/	Ma-	4b-\	Ma-	4g\	.	4b-\	.	4gg\	.	4bb-\	.
8C/J	.	.	.	.	.	.	.	.	.	.	.	.	.	.	.	.	.
=25	=25	=25	=25	=25	=25	=25	=25	=25	=25	=25	=25	=25	=25	=25	=25	=25	=25
8F\L	.	.	.	.	.	8f/L	-ri-	8a\L	-ri-	8f\L	.	8a\L	.	8ff\L	.	8aa\L	.
8F\	.	.	.	.	.	8g/J	.	8b-\J	.	8g\J	.	8b-\J	.	8gg\	.	8bb-\	.
8F\	.	.	.	.	.	4a\	-a	4cc\	-a	4a\	.	4cc\	.	8aa\	.	8ccc\	.
8F\	.	.	.	.	.	.	.	.	.	.	.	.	.	8ff\J	.	8aa\J	.
8F\	.	.	.	.	.	4a\	vir-	4ff\	Im-	4f\	.	4a\	.	4a/	.	4ff\	.
8F\J	.	.	.	.	.	.	.	.	.	.	.	.	.	.	.	.	.
*Xtremolo	*	*	*	*	*	*	*	*	*	*	*	*	*	*	*	*	*
=26	=26	=26	=26	=26	=26	=26	=26	=26	=26	=26	=26	=26	=26	=26	=26	=26	=26
!	!	!	!	!	!	!	!	!LO:LB:g=original	!	!	!	!	!	!	!	!	!
!LO:TX:t=P:problem:mixed beam	!LO:N:vis=0	!	!	!LO:N:vis=0	!	!	!	!	!	!	!	!	!	!	!	!	!
8C/L	.	1.r	.	1.r	.	4e/	-go-	4g\	-ma-	4c/	.	4g\	.	4ee\	.	4gg\	.
8c\	.	.	.	.	.	.	.	.	.	.	.	.	.	.	.	.	.
8C/	.	.	.	.	.	4f/	.	4a\	-cu-	4f\	.	4a\	.	4ff\	.	4aa\	.
8c\	.	.	.	.	.	.	.	.	.	.	.	.	.	.	.	.	.
8C/	.	.	.	.	.	4g/	-Ma-	4b-\	.	4g\	.	4b-\	.	4gg\	.	4bb-\	.
8c\J	.	.	.	.	.	.	.	.	.	.	.	.	.	.	.	.	.
=27	=27	=27	=27	=27	=27	=27	=27	=27	=27	=27	=27	=27	=27	=27	=27	=27	=27
!	!	!	!	!	!	!LO:LB:g=original	!	!	!	!LO:LB:g=original	!	!	!	!LO:LB:g=original	!	!LO:LB:g=original	!
!LO:TX:t=P:problem:mixed beam	!	!	!	!	!	!	!	!	!	!	!	!	!	!	!	!	!
8F\L	.	.	.	.	.	8f/L	-ri-	8a\L	-la-	8f/L	.	8a\L	.	8ff\L	.	8aa\L	.
8F\	.	.	.	.	.	8e/J	.	8g\J	.	8c/J	.	8g\J	.	8cc\J	.	8gg\J	.
8C\	.	.	.	.	.	4f/	-a	4f/	-te	4A/	.	4f\	.	4a/	.	4ff\	.
8C\	.	.	.	.	.	.	.	.	.	.	.	.	.	.	.	.	.
8FF/	.	.	.	.	.	4r	.	4f/	gau-	4A/	.	4f\	.	4a/	.	4ff\	.
8FF/J	.	.	.	.	.	.	.	.	.	.	.	.	.	.	.	.	.
=28	=28	=28	=28	=28	=28	=28	=28	=28	=28	=28	=28	=28	=28	=28	=28	=28	=28
!	!	!	!LO:DY:b:t=pianiſ.	!	!LO:DY:t=pianiſ	!LO:N:vis=2	!	!	!	!LO:N:vis=0	!	!LO:N:vis=0	!	!	!	!	!
4F\	.	4cc/	pp	4cc\	pp	1.r	.	4cc\	-de	1.r	.	1.r	.	4a/	.	4cc\	.
4F\	.	8b-/L	.	8dd\L	.	.	.	8dd\L	gau-	.	.	.	.	8b-/L	.	8dd\L	.
.	.	8g/	.	8ee\	.	.	.	8ee\J	-de	.	.	.	.	8g/	.	8ee\	.
4F\	.	8a/	.	8.ff\	.	.	.	8.ff\	De-	.	.	.	.	8.a/	.	8.ff\	.
.	.	8a/J	.	.	.	.	.	.	.	.	.	.	.	.	.	.	.
.	.	.	.	16ff\Jk	.	.	.	16ff\	-i	.	.	.	.	16a/Jk	.	16ff\Jk	.
=29	=29	=29	=29	=29	=29	=29	=29	=29	=29	=29	=29	=29	=29	=29	=29	=29	=29
!LO:LB:g=original	!	!	!	!	!	!	!	!	!	!	!	!	!	!	!	!	!
*	*	*tremolo	*	*	*	*	*	*	*	*	*	*	*	*	*	*	*
8c\L	.	8cc\L	.	16gg\LL	.	.	.	16gg\LL	Ge-	.	.	.	.	8cc\L	.	16gg\LL	.
.	.	.	.	16ff\	.	.	.	16ff\	.	.	.	.	.	.	.	(16ff\	.
8c\	.	8cc\	.	16ee\	.	.	.	16ee\	.	.	.	.	.	8cc\	.	16ee\)	.
.	.	.	.	16ff\JJ	.	.	.	16ff\JJ	-ni-	.	.	.	.	.	.	16ff\JJ	.
8G\	.	8cc\	.	4gg\	.	.	.	4ee\	-trix	.	.	.	.	8cc\	.	4gg\	.
8G\	.	8cc\	.	.	.	.	.	.	.	.	.	.	.	8cc\J	.	.	.
8C\	.	8cc\	.	4gg\	.	.	.	4ee\	quae	.	.	.	.	4cc\	.	4gg\	.
8C\J	.	8cc\J	.	.	.	.	.	.	.	.	.	.	.	.	.	.	.
*	*	*Xtremolo	*	*	*	*	*	*	*	*	*	*	*	*	*	*	*
=30	=30	=30	=30	=30	=30	=30	=30	=30	=30	=30	=30	=30	=30	=30	=30	=30	=30
!	!	!LO:LB:g=original	!	!LO:LB:g=original	!	!	!	!LO:LB:g=original	!	!	!	!	!	!	!	!	!
8F\L	.	4ff\	.	4aa\	.	4a\	gau-	4ff\	gau-	4f\	.	4a\	.	4ff\	.	4aa\	.
8F\	.	.	.	.	.	.	.	.	.	.	.	.	.	.	.	.	.
8C\	.	8ee\L	.	8gg\L	.	8g\L	-di-	8ee\L	-di-	4c/	.	4g\	.	8ee\L	.	8gg\L	.
8C\	.	8ff\	.	8aa\	.	8a\J	.	8ff\J	.	.	.	.	.	8ff\	.	8aa\	.
8F\	.	8gg\	.	8bb-\	.	8b-\L	-um	8gg\L	-um	4f\	.	4a\	.	8gg\	.	8bb-\	.
8F\J	.	8aa\J	.	8ccc\J	.	8cc\J	ſus-	8aa\J	.	.	.	.	.	8aa\J	.	8ccc\J	.
=31	=31	=31	=31	=31	=31	=31	=31	=31	=31	=31	=31	=31	=31	=31	=31	=31	=31
8C/L	.	8bb-\L	.	8ddd\L	.	8dd\	-ce-	8bb-\L	ſus-	4g\	.	4b-\	.	8bb-\L	.	8ddd\L	.
8C/J	.	8bb-\	.	8ddd\	.	8dd\	-pis-	8bb-\J	-ce-	.	.	.	.	8bb-\	.	8ddd\	.
*tremolo	*	*	*	*	*	*	*	*	*	*	*	*	*	*	*	*	*
8F\L	.	8aa\	.	8ccc\	.	4cc\	-ti	4aa\	-pis-	4f\	.	4a\	.	8aa\	.	8ccc\	.
8F\	.	8aa\	.	8ccc\	.	.	.	.	.	.	.	.	.	8aa\J	.	8ccc\J	.
8F\	.	8ff\	.	8aa\	.	8cc\	ab	8aa\L	-ti	4f\	.	4a\	.	4r	.	16bb-\LL	.
.	.	.	.	.	.	.	.	.	.	.	.	.	.	.	.	16aa\	.
8F\J	.	8ff\J	.	8aa\J	.	8a\	.	8ff\J	ab	.	.	.	.	.	.	16gg\	.
.	.	.	.	.	.	.	.	.	.	.	.	.	.	.	.	16ff\JJ	.
*Xtremolo	*	*	*	*	*	*	*	*	*	*	*	*	*	*	*	*	*
=32	=32	=32	=32	=32	=32	=32	=32	=32	=32	=32	=32	=32	=32	=32	=32	=32	=32
!	!	!	!	!	!	!	!	!	!	!	!	!	!	!	!	!LO:LB:g=original	!
8c\L	.	8ee\L	.	8gg\L	.	8g\L	An-	8ee\L	An-	4c/	.	4g\	.	8b-/L	.	8gg\L	.
8c\	.	8ee\	.	8gg\	.	8g\J	-ge-	8ee\J	-ge-	.	.	.	.	16a/L	.	16ff\L	.
.	.	.	.	.	.	.	.	.	.	.	.	.	.	16b-/JJ	.	16gg\JJ	.
8F\	.	8ff\	.	8aa\	.	4a\	-lo	4ff\	-lo	4f\	.	4a\	.	8cc\L	.	8aa\L	.
8F\	.	8ff\	.	8aa\	.	.	.	.	.	.	.	.	.	8cc\J	.	8aa\J	.
8A\	.	8ff\	.	8aa\	.	8cc\L	gau-	8aa\L	gau-	4f\	.	4a\	.	4ff\	.	4aa\	.
8F\J	.	8ff\J	.	8aa\J	.	8a\J	.	8ff\J	-de	.	.	.	.	.	.	.	.
=33	=33	=33	=33	=33	=33	=33	=33	=33	=33	=33	=33	=33	=33	=33	=33	=33	=33
!	!	!	!	!	!	!	!	!	!	!	!	!	!	!LO:LB:g=original	!	!	!
8C/L	.	8b-/L	.	4gg\	.	4b-\	-de	4gg\	Vir-	4g\	.	4b-\	.	4b-/	.	4gg\	.
8C/J	.	8a/J	.	.	.	.	.	.	.	.	.	.	.	.	.	.	.
*tremolo	*	*tremolo	*	*	*	*	*	*	*	*	*	*	*	*	*	*	*
8F\L	.	8a/L	.	4ff\	.	4a\	Vir-	4ff\	-go	4f\	.	4a\	.	4a/	.	4ff\	.
8F\	.	8a/	.	.	.	.	.	.	.	.	.	.	.	.	.	.	.
8F\	.	8a/	.	8.ff\L	.	8.a\	-go	8.ff\L	.	4f\	.	4a\	.	8.a/L	.	8.ff\L	.
8F\J	.	8a/J	.	.	.	.	.	.	.	.	.	.	.	.	.	.	.
.	.	.	.	16ff\Jk	.	16dd\	quae	16ff\Jk	quae	.	.	.	.	16a/Jk	.	16ff\Jk	.
*Xtremolo	*	*	*	*	*	*	*	*	*	*	*	*	*	*	*	*	*
=34	=34	=34	=34	=34	=34	=34	=34	=34	=34	=34	=34	=34	=34	=34	=34	=34	=34
!	!	!	!	!	!	!LO:LB:g=original	!	!LO:LB:g=original	!	!	!	!LO:LB:g=original	!	!	!	!	!
8G\L	.	8dd\L	.	8ff\L	.	4ff\	ge-	8ff\L	ge-	4f\	.	4a\	.	4dd\	.	8ff\L	.
8D\	.	8dd\	.	8aa\	.	.	.	8aa\J	.	.	.	.	.	.	.	8aa\	.
8G\	.	8dd\	.	8gg\	.	4ff\	.	8gg\L	.	4f\	.	4a\	.	4dd\	.	8gg\	.
8D\	.	8dd\	.	8ff\	.	.	.	8ff\J	.	.	.	.	.	.	.	8ff\	.
8G\	.	8dd\	.	8ee\	.	4ff\	-nu-	8ee\L	-nu-	4f\	.	4a\	.	4dd\	.	8ee\	.
8D\J	.	8dd\J	.	8dd\J	.	.	.	8dd\J	.	.	.	.	.	.	.	8dd\J	.
*	*	*Xtremolo	*	*	*	*	*	*	*	*	*	*	*	*	*	*	*
=35	=35	=35	=35	=35	=35	=35	=35	=35	=35	=35	=35	=35	=35	=35	=35	=35	=35
!LO:LB:g=original	!	!	!	!	!	!	!	!	!	!	!	!	!	!	!	!	!
!LO:TX:t=P:problem:mixed beam	!	!	!	!	!	!	!	!	!	!	!	!	!	!	!	!	!
8C/L	.	16cc\LL	.	16cc\LL	.	4ee\	-i-	4cc\	-i-	4c/	.	4g\	.	4cc\	.	4ee\	.
.	.	16bn\	.	16bn\	.	.	.	.	.	.	.	.	.	.	.	.	.
8c\J	.	16cc\	.	16cc\	.	.	.	.	.	.	.	.	.	.	.	.	.
.	.	16dd\JJ	.	16dd\JJ	.	.	.	.	.	.	.	.	.	.	.	.	.
4C/	.	8cc\L	.	8cc\L	.	4cc\	-sti	4cc\	-sti	4c/	.	4g\	.	4cc\	.	4ee\	.
.	.	8cc\J	.	8cc\J	.	.	.	.	.	.	.	.	.	.	.	.	.
4F\	.	16cc\LL	.	16cc\LL	.	4r	.	16cc\LL	.	4f\	.	4a\	.	4r	.	4r	.
.	.	16dd\	.	16dd\	.	.	.	16dd\	Cla-	.	.	.	.	.	.	.	.
.	.	16ee\	.	16ee\	.	.	.	16ee\	.	.	.	.	.	.	.	.	.
.	.	16ff\JJ	.	16ff\JJ	.	.	.	16ff\JJ	-ri-	.	.	.	.	.	.	.	.
=36	=36	=36	=36	=36	=36	=36	=36	=36	=36	=36	=36	=36	=36	=36	=36	=36	=36
!	!	!LO:LB:g=original	!	!LO:LB:g=original	!	!	!	!	!	!	!	!	!	!	!	!	!
!	!	!	!	!	!	!LO:TX:a:t=1	!	!	!	!	!	!	!	!	!	!	!
4C/	.	16cc\LL	.	16cc\LL	.	2.r	.	16cc\LL	.	2.r	.	2.r	.	2.r	.	4r	.
.	.	16bn\	.	16bn\	.	.	.	16bn\	-ta-	.	.	.	.	.	.	.	.
.	.	16cc\	.	16cc\	.	.	.	16cc\	.	.	.	.	.	.	.	.	.
.	.	16dd\JJ	.	16dd\JJ	.	.	.	16dd\JJ	.	.	.	.	.	.	.	.	.
4C/	.	16ee\LL	.	16ee\LL	.	.	.	16ee\LL	.	.	.	.	.	.	.	16cc\LL	.
.	.	16dd\	.	16dd\	.	.	.	16dd\	.	.	.	.	.	.	.	16bn\	.
.	.	16ee\	.	16ee\	.	.	.	16ee\	.	.	.	.	.	.	.	16cc\	.
.	.	16ff\JJ	.	16ff\JJ	.	.	.	16ff\JJ	.	.	.	.	.	.	.	16dd\JJ	.
4C/	.	16gg\LL	.	16gg\LL	.	.	.	16gg\LL	.	.	.	.	.	.	.	16ee\LL	.
.	.	16ff\	.	16ff\	.	.	.	16ff\	.	.	.	.	.	.	.	16dd\	.
.	.	16gg\	.	16gg\	.	.	.	16gg\	.	.	.	.	.	.	.	16ee\	.
.	.	16aa\JJ	.	16aa\JJ	.	.	.	16aa\JJ	.	.	.	.	.	.	.	16ff\JJ	.
=37	=37	=37	=37	=37	=37	=37	=37	=37	=37	=37	=37	=37	=37	=37	=37	=37	=37
!	!	!	!	!	!	!	!	!LO:LB:g=original	!	!	!	!	!	!	!	!	!
4C/	.	8gg\L	.	8bb-\L	.	4gg\	ta-	4bb-\	.	4g\	.	4b-\	.	4bb-\	.	4gg\	.
.	.	8gg\	.	8bb-\	.	.	.	.	.	.	.	.	.	.	.	.	.
4C/	.	8ff\	.	8aa\	.	4ff\	.	4aa\	.	4f\	.	4a\	.	4aa\	.	4ff\	.
.	.	8ff\	.	8aa\	.	.	.	.	.	.	.	.	.	.	.	.	.
4C/	.	8ee\	.	8gg\	.	4ee\	-tem	4gg\	-tem	4c/	.	4g\	.	4gg\	.	4ee\	.
.	.	8ee\J	.	8gg\J	.	.	.	.	.	.	.	.	.	.	.	.	.
=38	=38	=38	=38	=38	=38	=38	=38	=38	=38	=38	=38	=38	=38	=38	=38	=38	=38
!	!	!	!	!	!	!	!	!	!	!LO:LB:g=original	!	!	!	!	!	!LO:LB:g=original	!
4C/	.	16cc\LL	.	16cc\LL	.	4r	.	16cc\LL	.	2.r	.	2.r	.	2.r	.	16cc\LL	.
!	!	!	!	!	!	!	!	!LO:SIC:s=16bn:v	!	!	!	!	!	!	!	!	!
.	.	16bn\	.	16bn\	.	.	.	16b-\	.	.	.	.	.	.	.	16bn\	.
.	.	16cc\	.	16cc\	.	.	.	16cc\	Cla-	.	.	.	.	.	.	16cc\	.
.	.	16ee\JJ	.	16ee\JJ	.	.	.	16ee\JJ	.	.	.	.	.	.	.	16ee\JJ	.
4F\	.	16ff\LL	.	16ff\LL	.	4r	.	16ff\LL	.	.	.	.	.	.	.	16ff\LL	.
.	.	16ee\	.	16ee\	.	.	.	16ee\	.	.	.	.	.	.	.	16ee\	.
.	.	16ff\	.	16ff\	.	.	.	16ff\	.	.	.	.	.	.	.	16ff\	.
.	.	16gg\JJ	.	16gg\JJ	.	.	.	16gg\JJ	.	.	.	.	.	.	.	16gg\JJ	.
4F\	.	8cc\L	.	8aa\L	.	8cc\	Cla-	8aa\L	.	.	.	.	.	.	.	8aa\L	.
.	.	8cc\J	.	8aa\J	.	8cc\	-ri-	8aa\J	-ri-	.	.	.	.	.	.	8ccc\J	.
=39	=39	=39	=39	=39	=39	=39	=39	=39	=39	=39	=39	=39	=39	=39	=39	=39	=39
!	!	!LO:TX:a:t=P:problem:dźwięk poprawiony na 4aa	!	!	!	!	!	!	!	!	!	!	!	!	!	!	!
8F\L	.	4cc\	.	4ccc\	.	4cc\	-ta-	4aa\	-ta-	4a\	.	4cc\	.	4aa\	.	4ccc\	.
8F\	.	.	.	.	.	.	.	.	.	.	.	.	.	.	.	.	.
!	!	!LO:TX:a:t=P:problem:dźwięk poprawiony na 4gg	!	!	!	!	!	!	!	!	!	!	!	!	!	!	!
8C\	.	4b-/	.	4bb-\	.	4b-\	.	4gg\	.	4g\	.	4b-\	.	4gg\	.	4bb-\	.
8C\	.	.	.	.	.	.	.	.	.	.	.	.	.	.	.	.	.
!	!	!LO:TX:a:t=P:problem:dźwięk poprawiony na 4ff	!	!	!	!	!	!	!	!	!	!	!	!	!	!	!
8F\	.	4a/	.	4aa\	.	4a\	-tem	4ff\	-tem	4f\	.	4a\	.	4ff\	.	4aa\	.
8F\J	.	.	.	.	.	.	.	.	.	.	.	.	.	.	.	.	.
=40	=40	=40	=40	=40	=40	=40	=40	=40	=40	=40	=40	=40	=40	=40	=40	=40	=40
!	!	!	!	!	!	!LO:LB:g=original	!	!	!	!	!	!	!	!	!	!	!
*	*	*	*	*	*	*	*	*	*	*	*	*	*	*^	*	*	*
*tremolo	*	*	*	*	*	*	*	*	*	*	*	*	*	*	*	*	*	*
!	!	!	!	!	!	!	!	!	!	!LO:N:vis=0	!	!LO:N:vis=0	!	!	!	!	!	!
8F\L	.	8a/L	.	8ff\L	.	4a\	ae-	4ff\	ae-	1.r	.	1.r	.	4a/	2ryy	.	4ff\	.
8F\	.	8a/	.	8ff\	.	.	.	.	.	.	.	.	.	.	.	.	.	.
8F\	.	8cc/	.	8ee\	.	4a\	-ter-	4ee\	-ter-	.	.	.	.	4a/	.	.	4ee\	.
8F\	.	8cc/	.	8ee\	.	.	.	.	.	.	.	.	.	.	.	.	.	.
*	*	*	*	*	*	*	*	*	*	*	*	*	*	*	*4\right	*	*	*
8F\	.	8b-/	.	8dd\	.	4b-\	-ni	4dd\	-ni	.	.	.	.	4b-/	4b-\	.	4dd\	.
*	*	*	*	*	*	*	*	*	*	*	*	*	*	*	*4\left	*	*	*
8F\J	.	8b-/J	.	8dd\J	.	.	.	.	.	.	.	.	.	.	.	.	.	.
*Xtremolo	*	*	*	*	*	*	*	*	*	*	*	*	*	*	*	*	*	*
*	*	*	*	*	*	*	*	*	*	*	*	*	*	*v	*v	*	*	*
=41	=41	=41	=41	=41	=41	=41	=41	=41	=41	=41	=41	=41	=41	=41	=41	=41	=41
!	!	!	!	!LO:LB:g=original	!	!	!	!	!	!	!	!	!	!LO:LB:g=original	!	!	!
4c\	.	8a/L	.	8cc/L	.	8a/L	lu-	8cc\L	lu-	.	.	.	.	8a/L	.	8cc/L	.
.	.	8f/J	.	8a/	.	8f/J	.	8a\J	.	.	.	.	.	8f/	.	8a/	.
!	!	!LO:LB:g=original	!	!	!	!	!	!	!	!	!	!	!	!	!	!	!
4C/	.	8g/L	.	8b-/	.	8g/L	-mi-	8b-\L	.	.	.	.	.	8g/	.	8b-/	.
.	.	8e/J	.	8g/J	.	8e/J	.	8g\J	-mi-	.	.	.	.	8e/	.	8g/	.
4F\	.	16f/LL	.	16f/LL	.	4f/	-nis	4a\	-nis	.	.	.	.	8f/	.	8a/	.
.	.	16a/	.	16a/	.	.	.	.	.	.	.	.	.	.	.	.	.
.	.	16cc/	.	16cc/	.	.	.	.	.	.	.	.	.	8f/J	.	8a/J	.
.	.	16ff/JJ	.	16ff/JJ	.	.	.	.	.	.	.	.	.	.	.	.	.
=42	=42	=42	=42	=42	=42	=42	=42	=42	=42	=42	=42	=42	=42	=42	=42	=42	=42
!LO:LB:g=original	!	!	!	!	!	!	!	!	!	!	!	!	!	!	!	!	!
!	!	!LO:N:vis=00	!	!LO:N:vis=00	!	!LO:TX:a:t=1	!	!	!	!	!	!	!	!	!	!	!
4C/	.	0.r	.	0.r	.	2.r	.	4cc\	lu-	8a\L	.	8cc\L	.	4aa\	.	4ccc\	.
.	.	.	.	.	.	.	.	.	.	8a\	.	8cc\	.	.	.	.	.
!	!	!	!	!	!	!	!	!LO:LB:g=original	!	!	!	!	!	!	!	!	!
4C/	.	.	.	.	.	.	.	8b-\L	.	8g\	.	8b-\	.	8gg\L	.	8bb-\L	.
.	.	.	.	.	.	.	.	16cc\L	.	8g\	.	8b-\	.	16aa\L	.	16ccc\L	.
.	.	.	.	.	.	.	.	16b-\JJ	-mi-	.	.	.	.	16gg\JJ	.	16bb-\JJ	.
4F\	.	.	.	.	.	.	.	4a\	-nis	8f\	.	8a\	.	4ff\	.	4aa\	.
.	.	.	.	.	.	.	.	.	.	8f\J	.	8a\J	.	.	.	.	.
=43	=43	=43	=43	=43	=43	=43	=43	=43	=43	=43	=43	=43	=43	=43	=43	=43	=43
!	!	!	!	!	!	!	!	!	!	!	!	!	!	!	!	!LO:LB:g=original	!
4C/	.	.	.	.	.	4cc\	lu-	2.r	.	8a\L	.	8cc\L	.	4aa\	.	4ccc\	.
.	.	.	.	.	.	.	.	.	.	8a\	.	8cc\	.	.	.	.	.
4C/	.	.	.	.	.	8b-\L	.	.	.	8g\	.	8b-\	.	8gg\L	.	8bb-\L	.
.	.	.	.	.	.	16cc\L	.	.	.	8g\	.	8b-\	.	16aa\L	.	16ccc\L	.
.	.	.	.	.	.	16b-\JJ	-mi-	.	.	.	.	.	.	16gg\JJ	.	16bb-\JJ	.
4F\	.	.	.	.	.	4a\	-nis	.	.	8f\	.	8a\	.	4ff\	.	4aa\	.
.	.	.	.	.	.	.	.	.	.	8f\J	.	8a\J	.	.	.	.	.
=44	=44	=44	=44	=44	=44	=44	=44	=44	=44	=44	=44	=44	=44	=44	=44	=44	=44
4F\	.	.	.	.	.	4a\	tu	4ff\	Tu	4f\	.	4a\	.	4a/	.	4ff\	.
4A\	.	.	.	.	.	4a\	so-	4ff\	So-	4f\	.	4a\	.	4a/	.	4ff\	.
4F\	.	.	.	.	.	4a\	-la	4ff\	-la	4f\	.	4a\	.	4a/	.	4ff\	.
=45	=45	=45	=45	=45	=45	=45	=45	=45	=45	=45	=45	=45	=45	=45	=45	=45	=45
!	!	!	!	!	!	!	!	!	!	!	!	!LO:LB:g=original	!	!	!	!	!
!	!	!	!	!	!	!	!	!LO:TX:a:t=t	!	!	!	!	!	!	!	!	!
4c\	.	.	.	.	.	2g\	Ma-	2ee\	Ma-	4c/	.	4g\	.	2g/	.	2ee\	.
4B-\	.	.	.	.	.	.	.	.	.	4c/	.	4g\	.	.	.	.	.
4A\	.	.	.	.	.	4a\	-ter	4ff\	-ter	4f\	.	4a\	.	4a/	.	4ff\	.
=46	=46	=46	=46	=46	=46	=46	=46	=46	=46	=46	=46	=46	=46	=46	=46	=46	=46
!	!	!	!	!	!	!LO:LB:g=original	!	!	!	!	!	!	!	!	!	!	!
!	!	!	!	!	!	!	!	!LO:TX:a:t=t	!	!	!	!	!	!	!	!	!
4c\	.	2.r	.	2.r	.	2g\	Ma-	2ee\	Ma-	4c/	.	4g\	.	2g/	.	2ee\	.
4B-\	.	.	.	.	.	.	.	.	.	4c/	.	4g\	.	.	.	.	.
4A\	.	.	.	.	.	4a\	-ter	4ff\	-ter	4f\	.	4a\	.	4a/	.	4ff\	.
=47	=47	=47	=47	=47	=47	=47	=47	=47	=47	=47	=47	=47	=47	=47	=47	=47	=47
!	!	!	!	!	!	!	!	!	!	!	!	!	!	!LO:LB:g=original	!	!	!
!	!	!	!	!	!	!	!	!	!	!	!	!	!	!	!	!LO:TX:a:t=P:problem:pomazane nuty przez dwa takty	!
!LO:TX:t=P:problem:mixed beam	!	!	!	!	!	!	!	!	!	!	!	!	!	!	!	!LO:TX:b:t=b___________	!
8.C/L	.	4gg\	.	4bb-\	.	4b-\	in-	4ee'\	in-	4c/	.	4g\	.	4gg\	.	4bb-\	.
16c\Jk	.	.	.	.	.	.	.	.	.	.	.	.	.	.	.	.	.
!	!	!	!	!	!	!	!	!LO:TX:a:t=P:problem:nuta z korektą	!	!	!	!	!	!	!	!	!
4G\	.	4gg\	.	4bb-\	.	4ee\	-tac-	4gg\	-tac-	4g\	.	4b-\	.	4gg\	.	4bb-\	.
!	!	!	!	!	!	!	!	!LO:TX:a:t=P:problem:nuta z korektą	!	!	!	!	!	!	!	!	!
4E\	.	4gg\	.	4bb-\	.	4ee\	-ta	4gg\	-ta	4g\	.	4b-\	.	4gg\	.	4bb-\	.
=48	=48	=48	=48	=48	=48	=48	=48	=48	=48	=48	=48	=48	=48	=48	=48	=48	=48
!	!	!	!	!	!	!	!	!	!	!LO:LB:g=original	!	!	!	!	!	!	!
2C;/	.	2.gg;\	.	2.bb-;\	.	2.ee;\	es	2.ee;\	es	2.g;\	.	2.b-;\	.	2.gg;\	.	2bb-;\	.
4C/	.	.	.	.	.	.	.	.	.	.	.	.	.	.	.	4r	.
=49	=49	=49	=49	=49	=49	=49	=49	=49	=49	=49	=49	=49	=49	=49	=49	=49	=49
!LO:LB:g=original	!	!	!	!	!	!	!	!LO:LB:g=original	!	!	!	!	!	!	!	!	!
!	!	!	!	!	!	!	!	!	!	!	!	!	!	!LO:N:vis=00	!	!LO:N:vis=00	!
4F\	.	8a/L	.	8ff\L	.	8a\	Vir-	8ff\L	Vir-	4a\	.	4cc\	.	0.r	.	0.r	.
.	.	8a/J	.	8cc\J	.	8a\	-go	8cc\J	-go	.	.	.	.	.	.	.	.
4A\	.	8r	.	8r	.	8r	.	8r	.	4r	.	4r	.	.	.	.	.
.	.	8a/L	.	8cc/L	.	8a/L	in-	8cc\L	.	.	.	.	.	.	.	.	.
4F\	.	8g/	.	8b-/	.	8g/	.	8b-\	in-	4a\	.	4cc\	.	.	.	.	.
.	.	8f/J	.	8a/J	.	8f/J	.	8a\J	.	.	.	.	.	.	.	.	.
=50	=50	=50	=50	=50	=50	=50	=50	=50	=50	=50	=50	=50	=50	=50	=50	=50	=50
!	!	!	!	!LO:TX:a:t=so	!	!	!	!	!	!	!	!	!	!	!	!	!
4G\	.	8b-/L	.	8dd\L	.	8b-\L	-tac-	8dd\L	-tac-	4b-\	.	4dd\	.	.	.	.	.
.	.	8g/J	.	8b-\J	.	8g\J	-ta	8b-\J	-ta	.	.	.	.	.	.	.	.
4E\	.	8r	.	8r	.	8r	.	8r	.	4r	.	4r	.	.	.	.	.
.	.	8g/L	.	8b-/L	.	8g/L	vir-	8b-\L	vir-	.	.	.	.	.	.	.	.
4C/	.	8f/	.	8a/	.	8f/	.	8a\	.	4g\	.	4b-\	.	.	.	.	.
.	.	8e/J	.	8g/J	.	8e/J	-go	8g\J	-go	.	.	.	.	.	.	.	.
!	!	!LO:TX:a:t=so	!	!LO:TX:a:t=so	!	!	!	!	!	!	!	!	!	!	!	!	!
=51	=51	=51	=51	=51	=51	=51	=51	=51	=51	=51	=51	=51	=51	=51	=51	=51	=51
4F\	.	8.a/L	.	8.cc\L	.	8.a\L	in-	8.cc\L	in-	8.a\L	.	8.cc\L	.	.	.	.	.
.	.	16g/Jk	.	16b-\Jk	.	16g\Jk	.	16b-\Jk	.	16g\Jk	.	16b-\Jk	.	.	.	.	.
4A\	.	8f/L	.	8a/L	.	4f/	-tac-	4a\	-tac-	4f\	.	4a\	.	.	.	.	.
.	.	8f/	.	8a/	.	.	.	.	.	.	.	.	.	.	.	.	.
4c\	.	8e/	.	8g/	.	4e/	-ta	4g\	-ta	4c/	.	4g\	.	.	.	.	.
.	.	8e/J	.	8g/J	.	.	.	.	.	.	.	.	.	.	.	.	.
=52	=52	=52	=52	=52	=52	=52	=52	=52	=52	=52	=52	=52	=52	=52	=52	=52	=52
!	!	!LO:LB:g=original	!	!	!	!LO:LB:g=original	!	!	!	!	!	!	!	!	!	!	!
*	*	*	*	*	*	*	*	*	*ij	*	*	*	*	*	*	*	*
4F\	.	4a/	.	8a/L	.	8f/L	es	8a\L	Vir-	4f\	.	4cc\	.	.	.	.	.
.	.	.	.	8cc/J	.	8a/J	.	8cc\J	-go	.	.	.	.	.	.	.	.
4A\	.	8r	.	8r	.	8r	.	8r	.	4r	.	4r	.	.	.	.	.
*	*	*	*	*	*	*	*ij	*	*	*	*	*	*	*	*	*	*
.	.	8a/L	.	8cc/L	.	8a/L	in-	8cc\L	.	.	.	.	.	.	.	.	.
4F\	.	8g/	.	8b-/	.	8g/	.	8b-\	in-	4a\	.	4cc\	.	.	.	.	.
.	.	8f/J	.	8a/J	.	8f/J	.	8a\J	.	.	.	.	.	.	.	.	.
=53	=53	=53	=53	=53	=53	=53	=53	=53	=53	=53	=53	=53	=53	=53	=53	=53	=53
!	!	!	!	!LO:LB:g=original	!	!	!	!	!	!	!	!	!	!	!	!	!
!	!	!	!	!	!	!	!	!	!	!	!	!	!	!LO:N:vis=0	!	!LO:N:vis=0	!
4G\	.	8b-/L	.	8dd\L	.	8b-\L	-ta-	8dd\L	-ta-	4b-\	.	4dd\	.	1.r	.	1.r	.
.	.	8g/J	.	8b-\J	.	8g\J	-cta	8b-\J	-cta	.	.	.	.	.	.	.	.
4E\	.	8r	.	8r	.	8r	.	8r	.	4r	.	4r	.	.	.	.	.
.	.	8g/L	.	8b-/L	.	8g/L	vir-	8b-\L	vir-	.	.	.	.	.	.	.	.
4C/	.	8f/	.	8a/	.	8f/	.	8a\	.	4g\	.	4b-\	.	.	.	.	.
.	.	8e/J	.	8g/J	.	8e/J	-go	8g\J	-go	.	.	.	.	.	.	.	.
*	*	*	*	*	*	*	*	*	*Xij	*	*	*	*	*	*	*	*
=54	=54	=54	=54	=54	=54	=54	=54	=54	=54	=54	=54	=54	=54	=54	=54	=54	=54
!	!	!	!	!	!	!	!	!LO:LB:g=original	!	!	!	!LO:LB:g=original	!	!	!	!	!
4F\	.	8.a/L	.	8.cc\L	.	8.a\L	in-	8.cc\L	in-	8.a\L	.	8.cc\L	.	.	.	.	.
.	.	16g/Jk	.	16b-\Jk	.	16g\Jk	.	16b-\Jk	.	16g\Jk	.	16b-\Jk	.	.	.	.	.
4A\	.	8f/L	.	8a/L	.	4f/	-tac-	4a\	-tac-	4f\	.	4a\	.	.	.	.	.
*	*	*	*	*	*	*	*Xij	*	*	*	*	*	*	*	*	*	*
.	.	8f/	.	8a/	.	.	.	.	.	.	.	.	.	.	.	.	.
4c\	.	8e/	.	8g/	.	4e/	-ta	4g\	-ta	4c/	.	4g\	.	.	.	.	.
.	.	8e/J	.	8g/J	.	.	.	.	.	.	.	.	.	.	.	.	.
=55	=55	=55	=55	=55	=55	=55	=55	=55	=55	=55	=55	=55	=55	=55	=55	=55	=55
!	!	!	!	!	!	!	!	!	!	!	!	!	!	!	!	!LO:LB:g=original	!
!	!	!	!LO:DY:t=for	!	!	!	!	!	!	!	!LO:DY:a	!	!	!	!	!	!
8A\L	.	8a/L	f	4ff 4cc 4f/	.	4f/	es	4f/	es	4A/	f	4f\	.	4a/	.	4ff\	.
!	!	!	!	!	!LO:DY:b	!	!	!	!	!	!	!	!LO:DY:t=for	!	!	!	!
8F\	.	8a/J	.	.	f	.	.	.	.	.	.	.	f	.	.	.	.
*	*	*tremolo	*	*	*	*	*	*	*	*	*	*	*	*	*	*	*
8A\	.	16a/LL	.	16aa\LL	.	4r	.	4r	.	4f\	.	4a\	.	4a/	.	4ff\	.
.	.	16a/	.	16ff\	.	.	.	.	.	.	.	.	.	.	.	.	.
8F\	.	16a/	.	16ff\	.	.	.	.	.	.	.	.	.	.	.	.	.
.	.	16a/	.	16cc\JJ	.	.	.	.	.	.	.	.	.	.	.	.	.
8A\	.	16a/	.	16aa\LL	.	4r	.	4r	.	4f\	.	4a\	.	4a/	.	4ff\	.
.	.	16a/	.	16ff\	.	.	.	.	.	.	.	.	.	.	.	.	.
8F\J	.	16a/	.	16ff\	.	.	.	.	.	.	.	.	.	.	.	.	.
.	.	16a/JJ	.	16cc\JJ	.	.	.	.	.	.	.	.	.	.	.	.	.
*	*	*Xtremolo	*	*	*	*	*	*	*	*	*	*	*	*	*	*	*
=56	=56	=56	=56	=56	=56	=56	=56	=56	=56	=56	=56	=56	=56	=56	=56	=56	=56
!	!	!	!	!	!	!LO:N:vis=00	!	!LO:N:vis=00	!	!	!	!	!	!	!	!	!
*tremolo	*	*	*	*	*	*	*	*	*	*	*	*	*	*	*	*	*
8C/L	.	8ccL 8e/	.	4cc 4e/	.	0.r	.	0.r	.	4g\	.	2.b-\	.	2.b-/	.	2.ee\	.
8C/	.	8ccJ 8e/	.	.	.	.	.	.	.	.	.	.	.	.	.	.	.
*	*	*tremolo	*	*	*	*	*	*	*	*	*	*	*	*	*	*	*
8C/	.	16ccLL 16e/	.	16bb-\LL	.	.	.	.	.	4g\	.	.	.	.	.	.	.
.	.	16cc 16e/	.	16gg\	.	.	.	.	.	.	.	.	.	.	.	.	.
8C/	.	16cc 16e/	.	16gg\	.	.	.	.	.	.	.	.	.	.	.	.	.
.	.	16cc 16e/	.	16ee\JJ	.	.	.	.	.	.	.	.	.	.	.	.	.
8C/	.	16cc 16e/	.	16bb-\LL	.	.	.	.	.	4g\	.	.	.	.	.	.	.
.	.	16cc 16e/	.	16gg\	.	.	.	.	.	.	.	.	.	.	.	.	.
8C/J	.	16cc 16e/	.	16gg\	.	.	.	.	.	.	.	.	.	.	.	.	.
.	.	16ccJJ 16e/	.	16ee\JJ	.	.	.	.	.	.	.	.	.	.	.	.	.
*Xtremolo	*	*Xtremolo	*	*	*	*	*	*	*	*	*	*	*	*	*	*	*
=57	=57	=57	=57	=57	=57	=57	=57	=57	=57	=57	=57	=57	=57	=57	=57	=57	=57
!LO:LB:g=original	!	!	!	!	!	!	!	!	!	!	!	!	!	!	!	!	!
8A\L	.	8a/L	.	4ff 4cc 4f/	.	.	.	.	.	4f\	.	4a\	.	4a/	.	4ff\	.
8F\	.	8a/J	.	.	.	.	.	.	.	.	.	.	.	.	.	.	.
*	*	*tremolo	*	*	*	*	*	*	*	*	*	*	*	*	*	*	*
8A\	.	16a/LL	.	16aa\LL	.	.	.	.	.	4f\	.	4a\	.	4a/	.	4ff\	.
.	.	16a/	.	16ff\	.	.	.	.	.	.	.	.	.	.	.	.	.
8F\	.	16a/	.	16ff\	.	.	.	.	.	.	.	.	.	.	.	.	.
.	.	16a/	.	16cc\JJ	.	.	.	.	.	.	.	.	.	.	.	.	.
8A\	.	16a/	.	16aa\LL	.	.	.	.	.	4f\	.	4a\	.	4a/	.	4ff\	.
.	.	16a/	.	16ff\	.	.	.	.	.	.	.	.	.	.	.	.	.
8F\J	.	16a/	.	16ff\	.	.	.	.	.	.	.	.	.	.	.	.	.
.	.	16a/JJ	.	16cc\JJ	.	.	.	.	.	.	.	.	.	.	.	.	.
*	*	*Xtremolo	*	*	*	*	*	*	*	*	*	*	*	*	*	*	*
=58	=58	=58	=58	=58	=58	=58	=58	=58	=58	=58	=58	=58	=58	=58	=58	=58	=58
!	!	!	!	!	!	!	!	!	!	!LO:LB:g=original	!	!	!	!	!	!	!
*tremolo	*	*	*	*	*	*	*	*	*	*	*	*	*	*	*	*	*
8C/L	.	8ccL 8e/	.	4cc 4e/	.	.	.	.	.	4g\	.	2.b-\	.	2.b-/	.	2.ee\	.
8C/	.	8ccJ 8e/	.	.	.	.	.	.	.	.	.	.	.	.	.	.	.
*	*	*tremolo	*	*	*	*	*	*	*	*	*	*	*	*	*	*	*
8C/	.	16ccLL 16e/	.	16bb-\LL	.	.	.	.	.	4g\	.	.	.	.	.	.	.
.	.	16cc 16e/	.	16gg\	.	.	.	.	.	.	.	.	.	.	.	.	.
8C/	.	16cc 16e/	.	16gg\	.	.	.	.	.	.	.	.	.	.	.	.	.
.	.	16cc 16e/	.	16ee\JJ	.	.	.	.	.	.	.	.	.	.	.	.	.
8C/	.	16cc 16e/	.	16bb-\LL	.	.	.	.	.	4g\	.	.	.	.	.	.	.
.	.	16cc 16e/	.	16gg\	.	.	.	.	.	.	.	.	.	.	.	.	.
8C/J	.	16cc 16e/	.	16gg\	.	.	.	.	.	.	.	.	.	.	.	.	.
.	.	16ccJJ 16e/	.	16ee\JJ	.	.	.	.	.	.	.	.	.	.	.	.	.
*Xtremolo	*	*	*	*	*	*	*	*	*	*	*	*	*	*	*	*	*
=59	=59	=59	=59	=59	=59	=59	=59	=59	=59	=59	=59	=59	=59	=59	=59	=59	=59
!	!	!LO:LB:g=original	!	!LO:LB:g=original	!	!	!	!	!	!	!	!	!	!	!	!	!
8F\L	.	16ff\LL	.	16aa\LL	.	.	.	.	.	4f\	.	4a\	.	2ff\	.	4ff\	.
.	.	16ff\	.	16aa\	.	.	.	.	.	.	.	.	.	.	.	.	.
8C\	.	16ff\	.	16aa\	.	.	.	.	.	.	.	.	.	.	.	.	.
.	.	16ff\	.	16aa\JJ	.	.	.	.	.	.	.	.	.	.	.	.	.
*	*	*	*	*tremolo	*	*	*	*	*	*	*	*	*	*	*	*	*
8F\	.	16ff\	.	16aa\LL	.	.	.	.	.	4f\	.	4a\	.	.	.	4aa\	.
.	.	16ff\	.	16aa\	.	.	.	.	.	.	.	.	.	.	.	.	.
8C\	.	16ff\	.	16aa\	.	.	.	.	.	.	.	.	.	.	.	.	.
.	.	16ff\JJ	.	16aa\JJ	.	.	.	.	.	.	.	.	.	.	.	.	.
*	*	*Xtremolo	*	*	*	*	*	*	*	*	*	*	*	*	*	*	*
8E\	.	16gg\LL	.	16bb-\LL	.	.	.	.	.	4g\	.	4b-\	.	4gg\	.	4bb-\	.
.	.	16gg\	.	16bb-\	.	.	.	.	.	.	.	.	.	.	.	.	.
8C\J	.	16gg\	.	16bb-\	.	.	.	.	.	.	.	.	.	.	.	.	.
.	.	16gg\JJ	.	16bb-\JJ	.	.	.	.	.	.	.	.	.	.	.	.	.
=60	=60	=60	=60	=60	=60	=60	=60	=60	=60	=60	=60	=60	=60	=60	=60	=60	=60
!	!	!	!	! przez 5 taktów	!	!LO:N:vis=00	!	!LO:N:vis=00	!	!	!	!	!	!	!	!	!
*	*	*tremolo	*	*	*	*	*	*	*	*	*	*	*	*	*	*	*
8F\L	.	16ff\LL	.	16aa\LL	.	0.r	.	0.r	.	4f\	.	4a\	.	2ff\	.	4aa\	.
.	.	16ff\	.	16aa\	.	.	.	.	.	.	.	.	.	.	.	.	.
8C\	.	16ff\	.	16aa\	.	.	.	.	.	.	.	.	.	.	.	.	.
.	.	16ff\	.	16aa\JJ	.	.	.	.	.	.	.	.	.	.	.	.	.
8F\	.	16ff\	.	16aa\LL	.	.	.	.	.	4f\	.	4a\	.	.	.	4aa\	.
.	.	16ff\	.	16aa\	.	.	.	.	.	.	.	.	.	.	.	.	.
8C\	.	16ff\	.	16aa\	.	.	.	.	.	.	.	.	.	.	.	.	.
.	.	16ff\JJ	.	16aa\JJ	.	.	.	.	.	.	.	.	.	.	.	.	.
*	*	*Xtremolo	*	*	*	*	*	*	*	*	*	*	*	*	*	*	*
8E\	.	16gg\LL	.	16bb-\LL	.	.	.	.	.	4g\	.	4b-\	.	4gg\	.	4bb-\	.
.	.	16gg\	.	16bb-\	.	.	.	.	.	.	.	.	.	.	.	.	.
8C\J	.	16gg\	.	16bb-\	.	.	.	.	.	.	.	.	.	.	.	.	.
.	.	16gg\JJ	.	16bb-\JJ	.	.	.	.	.	.	.	.	.	.	.	.	.
=61	=61	=61	=61	=61	=61	=61	=61	=61	=61	=61	=61	=61	=61	=61	=61	=61	=61
!	!	!	!	!	!	!	!	!	!	!	!	!	!	!LO:LB:g=original	!	!	!
*	*	*tremolo	*	*	*	*	*	*	*	*	*	*	*	*	*	*	*
8F\L	.	16aa\LL	.	16ccc\LL	.	.	.	.	.	4a\	.	4cc\	.	4aa\	.	4ccc\	.
.	.	16aa\	.	16ccc\	.	.	.	.	.	.	.	.	.	.	.	.	.
8A\	.	16aa\	.	16ccc\	.	.	.	.	.	.	.	.	.	.	.	.	.
.	.	16aa\	.	16ccc\JJ	.	.	.	.	.	.	.	.	.	.	.	.	.
8F\	.	16aa\	.	16ccc\LL	.	.	.	.	.	4a\	.	4cc\	.	4aa\	.	4ccc\	.
.	.	16aa\	.	16ccc\	.	.	.	.	.	.	.	.	.	.	.	.	.
8A\	.	16aa\	.	16ccc\	.	.	.	.	.	.	.	.	.	.	.	.	.
.	.	16aa\	.	16ccc\JJ	.	.	.	.	.	.	.	.	.	.	.	.	.
8F\	.	16aa\	.	16ccc#X\LL	.	.	.	.	.	4r	.	4r	.	4aa\	.	4ccc#X\	.
.	.	16aa\	.	16ccc#\	.	.	.	.	.	.	.	.	.	.	.	.	.
8F\J	.	16aa\	.	16ccc#\	.	.	.	.	.	.	.	.	.	.	.	.	.
.	.	16aa\JJ	.	16ccc#\JJ	.	.	.	.	.	.	.	.	.	.	.	.	.
=62	=62	=62	=62	=62	=62	=62	=62	=62	=62	=62	=62	=62	=62	=62	=62	=62	=62
8B-\L	.	16bb-\LL	.	16ddd\LL	.	.	.	.	.	4r	.	4r	.	4bb-\	.	4ddd\	.
.	.	16bb-\	.	16ddd\	.	.	.	.	.	.	.	.	.	.	.	.	.
8B-\	.	16bb-\	.	16ddd\	.	.	.	.	.	.	.	.	.	.	.	.	.
.	.	16bb-\JJ	.	16ddd\JJ	.	.	.	.	.	.	.	.	.	.	.	.	.
8c\	.	16gg\LL	.	16bb-\LL	.	.	.	.	.	4g\	.	4b-\	.	4gg\	.	4bb-\	.
.	.	16gg\	.	16bb-\	.	.	.	.	.	.	.	.	.	.	.	.	.
8c\	.	16gg\	.	16bb-\	.	.	.	.	.	.	.	.	.	.	.	.	.
.	.	16gg\JJ	.	16bb-\JJ	.	.	.	.	.	.	.	.	.	.	.	.	.
8F\	.	16ff\LL	.	16aa\LL	.	.	.	.	.	4f\	.	4a\	.	4ff\	.	4aa\	.
.	.	16ff\	.	16aa\	.	.	.	.	.	.	.	.	.	.	.	.	.
8F\J	.	16ff\	.	16aa\	.	.	.	.	.	.	.	.	.	.	.	.	.
.	.	16ff\JJ	.	16aa\JJ	.	.	.	.	.	.	.	.	.	.	.	.	.
=63	=63	=63	=63	=63	=63	=63	=63	=63	=63	=63	=63	=63	=63	=63	=63	=63	=63
!LO:LB:g=original	!	!	!	!	!	!	!	!	!	!	!	!LO:LB:g=original	!	!	!	!LO:LB:g=original	!
8F\L	.	16aa\LL	.	16ccc\LL	.	.	.	.	.	4a\	.	4cc\	.	4aa\	.	4ccc\	.
.	.	16aa\	.	16ccc\	.	.	.	.	.	.	.	.	.	.	.	.	.
8A\	.	16aa\	.	16ccc\	.	.	.	.	.	.	.	.	.	.	.	.	.
.	.	16aa\	.	16ccc\JJ	.	.	.	.	.	.	.	.	.	.	.	.	.
8F\	.	16aa\	.	16ccc\LL	.	.	.	.	.	4a\	.	4cc\	.	4aa\	.	4ccc\	.
.	.	16aa\	.	16ccc\	.	.	.	.	.	.	.	.	.	.	.	.	.
8A\	.	16aa\	.	16ccc\	.	.	.	.	.	.	.	.	.	.	.	.	.
.	.	16aa\	.	16ccc\JJ	.	.	.	.	.	.	.	.	.	.	.	.	.
8F\	.	16aa\	.	16ccc#X\LL	.	.	.	.	.	4r	.	4r	.	4aa\	.	4ccc#X\	.
.	.	16aa\	.	16ccc#\	.	.	.	.	.	.	.	.	.	.	.	.	.
8F\J	.	16aa\	.	16ccc#\	.	.	.	.	.	.	.	.	.	.	.	.	.
.	.	16aa\JJ	.	16ccc#\JJ	.	.	.	.	.	.	.	.	.	.	.	.	.
=64	=64	=64	=64	=64	=64	=64	=64	=64	=64	=64	=64	=64	=64	=64	=64	=64	=64
!	!	!	!	!	!	!LO:N:vis=00	!	!LO:N:vis=0	!	!	!	!	!	!	!	!	!
8B-\L	.	16bb-\LL	.	16ddd\LL	.	0.r	.	1.r	.	4r	.	4r	.	4bb-\	.	4ddd\	.
.	.	16bb-\	.	16ddd\	.	.	.	.	.	.	.	.	.	.	.	.	.
8B-\	.	16bb-\	.	16ddd\	.	.	.	.	.	.	.	.	.	.	.	.	.
.	.	16bb-\JJ	.	16ddd\JJ	.	.	.	.	.	.	.	.	.	.	.	.	.
8c\	.	16gg\LL	.	16bb-\LL	.	.	.	.	.	4g\	.	4b-\	.	4gg\	.	4bb-\	.
.	.	16gg\	.	16bb-\	.	.	.	.	.	.	.	.	.	.	.	.	.
8c\	.	16gg\	.	16bb-\	.	.	.	.	.	.	.	.	.	.	.	.	.
.	.	16gg\JJ	.	16bb-\JJ	.	.	.	.	.	.	.	.	.	.	.	.	.
8F\	.	16ff\LL	.	16aa\LL	.	.	.	.	.	4f\	.	4a\	.	4ff\	.	4aa\	.
.	.	16ff\	.	16aa\	.	.	.	.	.	.	.	.	.	.	.	.	.
8F\J	.	16ff\	.	16aa\	.	.	.	.	.	.	.	.	.	.	.	.	.
.	.	16ff\JJ	.	16aa\JJ	.	.	.	.	.	.	.	.	.	.	.	.	.
*	*	*Xtremolo	*	*Xtremolo	*	*	*	*	*	*	*	*	*	*	*	*	*
=65	=65	=65	=65	=65	=65	=65	=65	=65	=65	=65	=65	=65	=65	=65	=65	=65	=65
!LO:TX:t=P:problem:mixed beam	!	!	!	!	!	!	!	!	!	!	!	!	!	!	!	!	!
8B-\L	.	8gg\L	.	8gg\L	.	.	.	.	.	4g\	.	4b-\	.	4gg\	.	4gg\	.
8d\	.	16gg\L	.	16bb-\L	.	.	.	.	.	.	.	.	.	.	.	.	.
.	.	16bb-\JJ	.	16ddd\JJ	.	.	.	.	.	.	.	.	.	.	.	.	.
8c\	.	8aa\L	.	8ccc\L	.	.	.	.	.	4f\	.	4a\	.	4aa\	.	4aa\	.
8c\	.	8aa\	.	8ccc\	.	.	.	.	.	.	.	.	.	.	.	.	.
8C/	.	8gg\	.	8ee\	.	.	.	.	.	4c/	.	4g\	.	4gg\	.	4gg\	.
8C/J	.	8gg\J	.	8ee\J	.	.	.	.	.	.	.	.	.	.	.	.	.
=66	=66	=66	=66	=66	=66	=66	=66	=66	=66	=66	=66	=66	=66	=66	=66	=66	=66
!	!	!	!	!LO:LB:g=original	!	!	!	!	!	!	!	!	!	!	!	!	!
4F\	.	4ff\	.	4ff 4cc 4f/	.	.	.	4r	.	4A/	.	4f\	.	8ff\L	.	8ff\L	.
.	.	.	.	.	.	.	.	.	.	.	.	.	.	8cc\J	.	8aa\J	.
4FF/	.	4f/	.	4ff 4cc 4f/	.	.	.	4r	.	4A/	.	4f\	.	4a/	.	4ff\	.
!LO:TX:a:t=Solo	!	!	!	!	!	!	!	!	!	!	!	!	!	!	!	!	!
4F\	.	4r	.	4r	.	.	.	8.cc\	gau-	4r	.	4r	.	4r	.	8ccc\L	p
.	.	.	.	.	.	.	.	.	.	.	.	.	.	.	.	8aa\J	.
.	.	.	.	.	.	.	.	16a\	-de	.	.	.	.	.	.	.	.
=67	=67	=67	=67	=67	=67	=67	=67	=67	=67	=67	=67	=67	=67	=67	=67	=67	=67
!	!	!LO:LB:g=original	!	!	!	!	!	!	!	!LO:LB:g=original	!	!	!	!	!	!	!
!	!	!	!	!	!LO:DY:a	!	!	!	!	!	!LO:DY:a	!	!	!	!	!	!
4F\	.	4f/	p	4f/	p	.	.	4f/	Vir-	4A/	p	4f\	.	4a/	.	4ff\	.
4F\	.	8f/L	.	8f/L	.	.	.	8f/	.	4A/	.	4f\	.	8a/L	.	8ff\L	.
.	.	8f/	.	8f/	.	.	.	8f/	-go	.	.	.	.	8a/J	.	8ff\	.
4F\	.	8g/	.	8g/	.	.	.	8g\	De-	8c/L	.	8g\L	.	8cc\L	.	8gg\	.
.	.	8a/J	.	8a/J	.	.	.	8a\	-i	8f/J	.	8a\J	.	8ff\J	.	8aa\J	.
=68	=68	=68	=68	=68	=68	=68	=68	=68	=68	=68	=68	=68	=68	=68	=68	=68	=68
!	!	!	!	!	!	!	!	!	!	!	!	!	!	!LO:LB:g=original	!	!	!
8C/L	.	4g/	.	4b-/	.	4r	.	8b-\L	Ge-	4g\	.	4b-\	.	4gg\	.	4bb-\	.
8C/J	.	.	.	.	.	.	.	8b-\J	-ni-	.	.	.	.	.	.	.	.
*tremolo	*	*	*	*	*	*	*	*	*	*	*	*	*	*	*	*	*
8F\L	.	4f/	.	4a/	.	4r	.	4a\	-trix	4f\	.	4a\	.	4ff\	.	4aa\	.
8F\	.	.	.	.	.	.	.	.	.	.	.	.	.	.	.	.	.
8F\	.	8cc/L	.	4r	.	8.cc\	gau-	4r	.	4r	.	4r	.	8aa\L	.	8ccc\L	.
8F\J	.	8a/J	.	.	.	.	.	.	.	.	.	.	.	8ff\J	.	8aa\J	.
.	.	.	.	.	.	16a\	-de	.	.	.	.	.	.	.	.	.	.
*Xtremolo	*	*	*	*	*	*	*	*	*	*	*	*	*	*	*	*	*
=69	=69	=69	=69	=69	=69	=69	=69	=69	=69	=69	=69	=69	=69	=69	=69	=69	=69
!LO:LB:g=original	!	!	!	!	!	!LO:LB:g=original	!	!LO:LB:g=original	!	!	!	!	!	!	!	!LO:LB:g=original	!
8F\L	.	4f/	.	4a/	.	4f/	Vir-	4a\	Gau-	4f\	.	4a\	.	4a/	.	4ff\	.
8F\	.	.	.	.	.	.	.	.	.	.	.	.	.	.	.	.	.
8A\	.	8a/L	.	8a/L	.	8f/	-go	8a\	-de	4f\	.	4a\	.	8ff\L	.	8aa\L	.
8A\	.	8a/	.	8a/	.	8f/	De-	8a\	.	.	.	.	.	8ff\	.	8aa\	.
8F\	.	8b-/	.	8b-/	.	8g\	.	8b-\	Vir-	8g\L	.	8b-\L	.	8gg\	.	8bb-\	.
8F\J	.	8cc/J	.	8cc/J	.	8a\	-i	8cc\	-go	8a\J	.	8cc\J	.	8aa\J	.	8ccc\J	.
=70	=70	=70	=70	=70	=70	=70	=70	=70	=70	=70	=70	=70	=70	=70	=70	=70	=70
8C\L	.	4b-/	.	4dd\	.	8b-\L	ge-	8dd\L	ge-	4b-\	.	4dd\	.	4bb-\	.	4ddd\	.
8C\J	.	.	.	.	.	8b-\J	-ni-	8dd\J	-ni-	.	.	.	.	.	.	.	.
*tremolo	*	*	*	*	*	*	*	*	*	*	*	*	*	*	*	*	*
8F\L	.	8a/L	.	8cc\L	.	4a\	-trix	4cc\	-trix	4a\	.	4cc\	.	8.aa\L	.	8.ccc\L	.
8F\	.	8a/	.	8cc\	.	.	.	.	.	.	.	.	.	.	.	.	.
.	.	.	.	.	.	.	.	.	.	.	.	.	.	16cc\Jk	.	16aa\K	.
8F\	.	8a/	.	8aa\	.	8a\	So-	8ff\	So-	8f\L	.	8a\L	.	8a/L	.	8ff\	.
8F\J	.	8a/J	.	8ff\J	.	8a\	-la	8ff\	-la	8f\J	.	8a\J	.	8a/J	.	8ff\J	.
=71	=71	=71	=71	=71	=71	=71	=71	=71	=71	=71	=71	=71	=71	=71	=71	=71	=71
!	!	!	!	!	!	!	!	!	!	!	!	!LO:LB:g=original	!	!	!	!	!
!	!LO:DY:b:t=pianiſ	!	!	!	!	!	!	!LO:TX:a:t=t	!	!	!	!	!	!	!	!	!
8c\L	pp	8b-/L	.	8ee\L	.	4b-\	Ma-	4ee\	Ma-	4c/	.	4g\	.	4b-/	.	4ee\	.
8A\J	.	8g/	.	8cc\	.	.	.	.	.	.	.	.	.	.	.	.	.
8F\L	.	8a/	.	8ff\	.	4a\	-ter	4ff\	-ter	4f\	.	4a\	.	4a/	.	4ff\	.
8F\	.	8a/	.	8ff\	.	.	.	.	.	.	.	.	.	.	.	.	.
8F\	.	8cc/	.	8aa\	.	4a\	in-	4ff\	in-	4f\	.	4a\	.	4a/	.	4ff\	.
8F\J	.	8a/J	.	8ff\J	.	.	.	.	.	.	.	.	.	.	.	.	.
*Xtremolo	*	*	*	*	*	*	*	*	*	*	*	*	*	*	*	*	*
=72	=72	=72	=72	=72	=72	=72	=72	=72	=72	=72	=72	=72	=72	=72	=72	=72	=72
!	!	!	!	!	!	!	!	!LO:TX:a:t=t	!	!	!	!	!	!	!	!	!
8C/L	.	8b-/L	.	8ee\L	.	4b-\	-tac-	4ee\	-tac-	4c/	.	4g\	.	8cc\L	.	8ee\L	.
8C/J	.	8b-/	.	8gg\	.	.	.	.	.	.	.	.	.	8b-\J	.	8cc\J	.
*tremolo	*	*	*	*	*	*	*	*	*	*	*	*	*	*	*	*	*
8F\L	.	8a/	.	8ff\	.	4a\	-ta	4ff\	-ta	4f\	.	4a\	.	4a/	.	4ff\	.
8F\	.	8a/J	.	8ff\	.	.	.	.	.	.	.	.	.	.	.	.	.
!	!	!LO:TX:t=P:problem:mixed beam	!	!	!	!	!	!	!	!	!	!	!	!	!	!	!
8F\	.	8ff\L	.	8aa\	.	4a\	in-	4ff\	in-	4f\	.	4a\	.	4a/	.	4ff\	.
8F\J	.	8a/J	.	8gg\J	.	.	.	.	.	.	.	.	.	.	.	.	.
*Xtremolo	*	*	*	*	*	*	*	*	*	*	*	*	*	*	*	*	*
=73	=73	=73	=73	=73	=73	=73	=73	=73	=73	=73	=73	=73	=73	=73	=73	=73	=73
*	*	*tremolo	*	*	*	*	*	*	*	*	*	*	*	*	*	*	*
8c\L	.	8a/L	.	8ff\L	.	4a\	-tac-	4ff\	-tac-	4a\	.	4cc\	.	4ff\	.	8ff\L	.
8c\	.	8a/	.	8ff\	.	.	.	.	.	.	.	.	.	.	.	8aa\J	.
8F\	.	8a/	.	8cc\	.	4a\	-ta	4cc\	-ta	4a\	.	4cc\	.	4aa\	.	4ccc\	.
8F\	.	8a/J	.	8cc\	.	.	.	.	.	.	.	.	.	.	.	.	.
*	*	*Xtremolo	*	*	*	*	*	*	*	*	*	*	*	*	*	*	*
8B-\	.	8b-/L	.	8dd\	.	4b-\	es	4dd\	es	4b-\	.	4dd\	.	4bb-\	.	4ddd\	.
8B-\J	.	8b-/J	.	8dd\J	.	.	.	.	.	.	.	.	.	.	.	.	.
=74	=74	=74	=74	=74	=74	=74	=74	=74	=74	=74	=74	=74	=74	=74	=74	=74	=74
!	!	!LO:LB:g=original	!	!LO:LB:g=original	!	!LO:LB:g=original	!	!LO:LB:g=original	!	!	!	!	!	!LO:LB:g=original	!	!	!
4c\	.	8aa\L	.	8cc\L	.	2a\	Vir-	2cc\	Vir-	2a\	.	2cc\	.	2aa\	.	2ccc\	.
.	.	8ff\	.	8aa\	.	.	.	.	.	.	.	.	.	.	.	.	.
4C/	.	8aa\	.	8ccc\	.	.	.	.	.	.	.	.	.	.	.	.	.
.	.	8ff\J	.	8aa\	.	.	.	.	.	.	.	.	.	.	.	.	.
8F\L	.	8ddd\L	.	8ccc\	.	8g/	-go	8b-\	-go	8g\L	.	8b-\L	.	8gg\L	.	8bb-\L	.
8F\J	.	8ccc\J	.	8aa\J	.	8f/	.	8a\	.	8f\J	.	8a\J	.	8ff\J	.	8aa\J	.
=75	=75	=75	=75	=75	=75	=75	=75	=75	=75	=75	=75	=75	=75	=75	=75	=75	=75
!LO:LB:g=original	!	!	!	!	!	!	!	!	!	!LO:LB:g=original	!	!	!	!	!	!LO:LB:g=original	!
!LO:TX:t=P:problem:mixed beam	!	!	!	!	!	!	!	!	!	!	!	!	!	!	!	!	!
8F\L	.	8aa\L	.	8ccc\L	.	8a\	Ma-	8cc\	Ma-	8a\L	.	8cc\L	.	8aa\L	.	8ccc\L	.
8B-\	.	8gg\	.	8ccc\	.	8g\	.	8b-\	.	8g\J	.	8b-\J	.	8gg\J	.	8bb-\J	.
8c\	.	8ff\	.	8aa\	.	4f/	-ri-	4a\	-ri-	4f\	.	4a\	.	4ff\	.	4aa\	.
8c\	.	8ff\	.	8aa\	.	.	.	.	.	.	.	.	.	.	.	.	.
8C/	.	8ee\	.	8gg\	.	4e/	-a	4g\	-a	4c/	.	4g\	.	4ee\	.	4gg\	.
8C/J	.	8ee\J	.	8gg\J	.	.	.	.	.	.	.	.	.	.	.	.	.
=76	=76	=76	=76	=76	=76	=76	=76	=76	=76	=76	=76	=76	=76	=76	=76	=76	=76
!	!	!	!	!	!	!	!	!	!	!	!	!	!	!	!	!	!
*	*	*tremolo	*	*	*	*	*	*	*	*	*	*	*	*	*	*	*
8c\L	.	16gg\LL	.	16bb-\LL	.	8b-\L	Vir-	8ee\L	Vir-	4g\	.	4b-\	.	4b-/	.	4ee\	.
.	.	16gg\	.	16bb-\	.	.	.	.	.	.	.	.	.	.	.	.	.
8c\J	.	16gg\	.	16bb-\	.	16a\L	.	16dd\L	.	.	.	.	.	.	.	.	.
.	.	16gg\JJ	.	16bb-\JJ	.	16b-\JJ	.	16ee\JJ	.	.	.	.	.	.	.	.	.
*tremolo	*	*	*	*tremolo	*	*	*	*	*	*	*	*	*	*	*	*	*
8F\L	.	16ff\LL	.	16aa\LL	.	4a\	-go	4ff\	-go	4f\	.	4a\	.	4a/	.	4ff\	.
.	.	16ff\	.	16aa\	.	.	.	.	.	.	.	.	.	.	.	.	.
8F\	.	16ff\	.	16aa\	.	.	.	.	.	.	.	.	.	.	.	.	.
.	.	16ff\	.	16aa\	.	.	.	.	.	.	.	.	.	.	.	.	.
8F\	.	16ff\	.	16aa\	.	4a\	Ma-	4ff\	Ma-	4f\	.	4a\	.	4a/	.	4ff\	.
.	.	16ff\	.	16aa\	.	.	.	.	.	.	.	.	.	.	.	.	.
8F\J	.	16ff\	.	16aa\	.	.	.	.	.	.	.	.	.	.	.	.	.
.	.	16ff\JJ	.	16aa\JJ	.	.	.	.	.	.	.	.	.	.	.	.	.
*Xtremolo	*	*	*	*	*	*	*	*	*	*	*	*	*	*	*	*	*
=77	=77	=77	=77	=77	=77	=77	=77	=77	=77	=77	=77	=77	=77	=77	=77	=77	=77
8c\L	.	16gg\LL	.	16bb-\LL	.	8b-\L	.	8ee\L	.	4g\	.	4b-\	.	4b-/	.	4ee\	.
.	.	16gg\	.	16bb-\	.	.	.	.	.	.	.	.	.	.	.	.	.
8c\J	.	16gg\	.	16bb-\	.	16a\L	-ri-	16dd\L	-ri-	.	.	.	.	.	.	.	.
.	.	16gg\JJ	.	16bb-\JJ	.	16b-\JJ	.	16ee\JJ	.	.	.	.	.	.	.	.	.
*tremolo	*	*	*	*	*	*	*	*	*	*	*	*	*	*	*	*	*
8F\L	.	16ff\LL	.	16aa\LL	.	4a\	-a	4ff\	-a	4f\	.	4a\	.	4a/	.	4ff\	.
.	.	16ff\	.	16aa\	.	.	.	.	.	.	.	.	.	.	.	.	.
8F\	.	16ff\	.	16aa\	.	.	.	.	.	.	.	.	.	.	.	.	.
.	.	16ff\	.	16aa\	.	.	.	.	.	.	.	.	.	.	.	.	.
8F\	.	16ff\	.	16aa\	.	4a\	Vir-	4ff\	Vir-	4f\	.	4a\	.	8a\L	.	8ff\L	.
.	.	16ff\	.	16aa\	.	.	.	.	.	.	.	.	.	.	.	.	.
8F\J	.	16ff\	.	16aa\	.	.	.	.	.	.	.	.	.	8ff\J	.	8aa\J	.
.	.	16ff\JJ	.	16aa\JJ	.	.	.	.	.	.	.	.	.	.	.	.	.
*Xtremolo	*	*Xtremolo	*	*Xtremolo	*	*	*	*	*	*	*	*	*	*	*	*	*
=78	=78	=78	=78	=78	=78	=78	=78	=78	=78	=78	=78	=78	=78	=78	=78	=78	=78
!LO:TX:t=P:problem:mixed beam	!	!	!	!	!	!	!	!	!	!	!	!	!	!	!	!	!
8F\L	.	8aa\L	.	8ccc\L	.	8a\L	-go	8cc\L	-go	8a\L	.	8cc\L	.	8aa\L	.	8ccc\L	.
8B-\	.	8gg\J	.	8bb-\J	.	8g\J	.	8b-\J	.	8g\J	.	8b-\J	.	8gg\J	.	8bb-\J	.
8c\	.	8ff\L	.	8aa\L	.	4f/	Ma-	4a\	Ma-	4f\	.	4a\	.	4ff\	.	4aa\	.
8c\	.	8ff\	.	8aa\	.	.	.	.	.	.	.	.	.	.	.	.	.
8C/	.	8ee\	.	8gg\	.	4e/	-ri-	4g\	-ri-	4c/	.	4g\	.	4ee\	.	4gg\	.
8C/J	.	8ee\J	.	8gg\J	.	.	.	.	.	.	.	.	.	.	.	.	.
=79	=79	=79	=79	=79	=79	=79	=79	=79	=79	=79	=79	=79	=79	=79	=79	=79	=79
!	!	!	!	!	!	!LO:LB:g=original	!	!LO:LB:g=original	!	!	!	!LO:LB:g=original	!	!	!	!	!
!	!	!	!	!LO:TX:t=P:problem:mixed beam	!	!	!	!	!	!	!	!	!	!LO:N:vis=00	!	!LO:N:vis=00	!
4F\	.	8a/L	.	8ff\L	.	4f/	-a	4f/	-a	4A/	.	4f\	.	0.r	.	0.r	.
.	.	8a/	.	8ff\	.	.	.	.	.	.	.	.	.	.	.	.	.
4F\	.	8f/	.	8a/	.	8f/	Vir-	8f/	Vir-	8A/L	.	8f\L	.	.	.	.	.
.	.	8f/	.	8a/J	.	8f/	.	8a\	.	8A/	.	8f\	.	.	.	.	.
4F\	.	8g/	.	8b-\L	.	8g\	-go	8b-\	-go	8c/	.	8g\	.	.	.	.	.
.	.	8a/J	.	8cc\J	.	8a\	Ma-	8cc\	Ma	8f/J	.	8a\J	.	.	.	.	.
=80	=80	=80	=80	=80	=80	=80	=80	=80	=80	=80	=80	=80	=80	=80	=80	=80	=80
!	!	!	!	!LO:LB:g=original	!	!	!	!	!	!	!	!	!	!	!	!	!
8c\L	.	8b-\L	.	8dd\L	.	4b-\	-ri-	4dd\	-ri-	4g\	.	4b-\	.	.	.	.	.
8c\	.	8b-\	.	8dd\	.	.	.	.	.	.	.	.	.	.	.	.	.
8A\	.	8a\	.	8cc\	.	4a\	-a	4cc\	-a	4f\	.	4a\	.	.	.	.	.
8F\	.	8a\	.	8cc\	.	.	.	.	.	.	.	.	.	.	.	.	.
8A\	.	8ff\	.	8aa\	.	8a\	So-	8ff\	So-	8f\L	.	8a\L	.	.	.	.	.
8F\J	.	8ff\J	.	8aa\J	.	8a\	-la	8ff\	-la	8f\J	.	8a\J	.	.	.	.	.
=81	=81	=81	=81	=81	=81	=81	=81	=81	=81	=81	=81	=81	=81	=81	=81	=81	=81
!LO:LB:g=original	!	!LO:LB:g=original	!	!	!	!	!	!	!	!	!	!	!	!	!	!	!
!	!	!LO:TX:t=P:problem:mixed beam	!	!	!	!	!	!	!	!	!	!	!	!	!	!	!
8C/L	.	8ee\L	.	8bb-\L	.	4g\	Ma-	4ee\	Ma-	4c/	.	4g\	.	.	.	.	.
8C/J	.	8ee\	.	8bb-\J	.	.	.	.	.	.	.	.	.	.	.	.	.
*tremolo	*	*	*	*tremolo	*	*	*	*	*	*	*	*	*	*	*	*	*
8F\L	.	8ff\	.	8aa\L	.	4a\	-ter	4ff\	-ter	4f\	.	4a\	.	.	.	.	.
8F\	.	8a/	.	8aa\	.	.	.	.	.	.	.	.	.	.	.	.	.
8F\	.	8a/	.	8aa\	.	4a\	.	4f/	.	4a\	.	4cc\	.	.	.	.	.
8F\J	.	8a/J	.	8aa\J	.	.	.	.	.	.	.	.	.	.	.	.	.
*Xtremolo	*	*	*	*Xtremolo	*	*	*	*	*	*	*	*	*	*	*	*	*
=82	=82	=82	=82	=82	=82	=82	=82	=82	=82	=82	=82	=82	=82	=82	=82	=82	=82
!	!	!	!	!LO:TX:t=P:problem:mixed beam	!	!	!	!	!	!	!	!	!	!	!	!	!
4F\	.	8a/L	.	8ff\L	.	4f/	Ma-	4f/	Ma-	4A/	.	4f\	.	.	.	.	.
.	.	8a/J	.	8ff\	.	.	.	.	.	.	.	.	.	.	.	.	.
4F\	.	8f/L	.	8a/	.	8f/	.	8f/	.	8A/L	.	8f\L	.	.	.	.	.
.	.	8f/	.	8a/J	.	8f/	.	8a\	-ter-	8A/	.	8f\	.	.	.	.	.
4F\	.	8g/	.	8b-\L	.	8g\	-ter	8b-\	.	8c/	.	8g\	.	.	.	.	.
.	.	8a/J	.	8cc\J	.	8a\	in-	8cc\	-in-	8f/J	.	8a\J	.	.	.	.	.
=83	=83	=83	=83	=83	=83	=83	=83	=83	=83	=83	=83	=83	=83	=83	=83	=83	=83
!	!	!	!	!	!	!LO:LB:g=original	!	!	!	!LO:LB:g=original	!	!	!	!	!	!	!
!	!	!	!	!	!	!	!	!	!	!	!	!	!	!LO:N:vis=0	!	!LO:N:vis=0	!
8c\L	.	8b-\L	.	8dd\L	.	4b-\	-tac-	4dd\	-tac-	4g\	.	4b-\	.	1.r	.	1.r	.
8c\	.	8b-\	.	8dd\	.	.	.	.	.	.	.	.	.	.	.	.	.
8A\	.	8a\	.	8cc\	.	4a\	-ta	4cc\	-ta	4f\	.	4a\	.	.	.	.	.
8F\	.	8a\	.	8cc\	.	.	.	.	.	.	.	.	.	.	.	.	.
!	!	!	!	!	!	!	!	!LO:LB:g=original	!	!	!	!	!	!	!	!	!
8A\	.	8ff\	.	8aa\	.	8a\	So-	8ff\	So-	8f\L	.	8a\L	.	.	.	.	.
8F\J	.	8ff\J	.	8aa\J	.	8a\	-la	8ff\	-la	8f\J	.	8a\J	.	.	.	.	.
=84	=84	=84	=84	=84	=84	=84	=84	=84	=84	=84	=84	=84	=84	=84	=84	=84	=84
!	!	!LO:TX:t=P:problem:mixed beam	!	!	!	!	!	!	!	!	!	!	!	!	!	!	!
8C/L	.	8ee\L	.	8bb-\L	.	4g\	vir-	4ee\	Vir-	4c/	.	4g\	.	.	.	.	.
8C/J	.	8ee\	.	8bb-\	.	.	.	.	.	.	.	.	.	.	.	.	.
*tremolo	*	*	*	*	*	*	*	*	*	*	*	*	*	*	*	*	*
8F\L	.	8ff\	.	8aa\	.	4a\	-go	4ff\	-go	4f\	.	4a\	.	.	.	.	.
8F\	.	8a/	.	8aa\	.	.	.	.	.	.	.	.	.	.	.	.	.
8F\	.	8a/	.	8aa\	.	4a\	Vir-	4f/	vir-	4a\	.	4cc\	.	.	.	.	.
8F\J	.	8a/J	.	8aa\J	.	.	.	.	.	.	.	.	.	.	.	.	.
*Xtremolo	*	*	*	*	*	*	*	*	*	*	*	*	*	*	*	*	*
=85	=85	=85	=85	=85	=85	=85	=85	=85	=85	=85	=85	=85	=85	=85	=85	=85	=85
!LO:TX:t=P:problem:mixed beam	!	!	!	!	!	!	!	!	!	!	!	!	!	!	!	!	!
8F\L	.	8aa\L	.	8ccc\L	.	8a\L	-go	8cc\L	-go	8a\L	.	8cc\L	.	2.r	.	2.r	.
8B-\	.	8gg\	.	8bb-\J	.	8g\J	Ma-	8b-\J	in	8g\J	.	8b-\J	.	.	.	.	.
8c\	.	8ff\	.	8aa\L	.	4f/	-ri-	4a\	ta-	4f\	.	4a\	.	.	.	.	.
8c\	.	8ff\	.	8aa\	.	.	.	.	.	.	.	.	.	.	.	.	.
8C/	.	8ee\	.	8gg\	.	4e/	.	4g\	-c-	4c/	.	4g\	.	.	.	.	.
8C/J	.	8ee\J	.	8gg\J	.	.	.	.	.	.	.	.	.	.	.	.	.
=86	=86	=86	=86	=86	=86	=86	=86	=86	=86	=86	=86	=86	=86	=86	=86	=86	=86
!	!	!	!	!LO:LB:g=original	!	!	!	!	!	!	!	!LO:LB:g=original	!	!LO:LB:g=original	!	!LO:PB:g=original	!
8F\L	.	8a/L	.	8ff\L	.	4f/	-a	4f/	-ta	4f\	.	4a\	.	4r	.	4r	.
8F\	.	8a/J	.	8ff\J	.	.	.	.	.	.	.	.	.	.	.	.	.
8F\	.	16cc\LL	.	16ccc\LL	.	4r	.	4r	.	8r	.	8r	.	8r	.	8r	.
!	!	!	!	!	!LO:DY:b	!	!	!	!	!	!	!	!	!	!	!	!
.	.	16cc\	.	16ccc\	p	.	.	.	.	.	.	.	.	.	.	.	.
8F\J	.	16cc\	.	16ccc\	.	.	.	.	.	8f/L	.	8a\L	.	8ff\L	.	8aa\L	.
.	.	16cc\JJ	.	16ccc\JJ	.	.	.	.	.	.	.	.	.	.	.	.	.
*	*	*tremolo	*	*tremolo	*	*	*	*	*	*	*	*	*	*	*	*	*
8C/L	.	16cc\LL	.	16ccc\LL	.	4r	.	4r	.	8c/	.	8g\	.	8ee\	.	8gg\	.
.	.	16cc\	.	16ccc\	.	.	.	.	.	.	.	.	.	.	.	.	.
8F/J	.	16cc\	.	16ccc\	.	.	.	.	.	8f/J	.	8a\J	.	8ff\J	.	8aa\J	.
.	.	16cc\JJ	.	16ccc\JJ	.	.	.	.	.	.	.	.	.	.	.	.	.
=87	=87	=87	=87	=87	=87	=87	=87	=87	=87	=87	=87	=87	=87	=87	=87	=87	=87
!LO:PB:g=original	!	!	!	!	!	!	!	!LO:TX:a:t=7	!	!	!	!	!	!	!	!	!
!LO:TX:t=P:problem:mixed beam	!	!	!	!	!	!LO:N:vis=00	!	!LO:N:vis=00	!	!	!	!	!	!	!	!	!
8C\L	.	16cc\LL	.	16ccc\LL	.	0.r	.	0.r	.	4g\	.	4b-\	.	8gg\L	.	8bb-\L	.
.	.	16cc\	.	16ccc\	.	.	.	.	.	.	.	.	.	.	.	.	.
8E\	.	16cc\	.	16ccc\	.	.	.	.	.	.	.	.	.	16ff\L	.	16aa\L	.
.	.	16cc\	.	16ccc\JJ	.	.	.	.	.	.	.	.	.	16gg\JJ	.	16bb-\JJ	.
8G\	.	16cc\	.	16ccc\LL	.	.	.	.	.	4g\	.	4b-\	.	8gg\L	.	8bb-\L	.
.	.	16cc\	.	16ccc\	.	.	.	.	.	.	.	.	.	.	.	.	.
8c\	.	16cc\	.	16ccc\	.	.	.	.	.	.	.	.	.	16ff\L	.	16aa\L	.
.	.	16cc\	.	16ccc\JJ	.	.	.	.	.	.	.	.	.	16gg\JJ	.	16bb-\JJ	.
8C/	.	16cc\	.	16ccc\LL	.	.	.	.	.	4g\	.	4b-\	.	8gg\L	.	8bb-\L	.
.	.	16cc\	.	16ccc\	.	.	.	.	.	.	.	.	.	.	.	.	.
8C/J	.	16cc\	.	16ccc\	.	.	.	.	.	.	.	.	.	16ff\L	.	16aa\L	.
.	.	16cc\JJ	.	16ccc\JJ	.	.	.	.	.	.	.	.	.	16gg\JJ	.	16bb-\JJ	.
=88	=88	=88	=88	=88	=88	=88	=88	=88	=88	=88	=88	=88	=88	=88	=88	=88	=88
*tremolo	*	*	*	*	*	*	*	*	*	*	*	*	*	*	*	*	*
8F\L	.	16cc\LL	.	16ccc\LL	.	.	.	.	.	4f\	.	4a\	.	4ff\	.	4aa\	.
.	.	16cc\	.	16ccc\	.	.	.	.	.	.	.	.	.	.	.	.	.
8F\	.	16cc\	.	16ccc\	.	.	.	.	.	.	.	.	.	.	.	.	.
.	.	16cc\	.	16ccc\JJ	.	.	.	.	.	.	.	.	.	.	.	.	.
8F\	.	16cc\	.	16ccc\LL	.	.	.	.	.	8f/L	.	8a\L	.	8r	.	8r	.
.	.	16cc\	.	16ccc\	.	.	.	.	.	.	.	.	.	.	.	.	.
8F\J	.	16cc\	.	16ccc\	.	.	.	.	.	8f/	.	8a\	.	8ff\L	.	8aa\L	.
.	.	16cc\	.	16ccc\JJ	.	.	.	.	.	.	.	.	.	.	.	.	.
8C\L	.	16cc\	.	16ccc\LL	.	.	.	.	.	8c/	.	8g\	.	8ee\	.	8gg\	.
.	.	16cc\	.	16ccc\	.	.	.	.	.	.	.	.	.	.	.	.	.
8F\J	.	16cc\	.	16ccc\	.	.	.	.	.	8f/J	.	8a\J	.	8ff\J	.	8aa\J	.
.	.	16cc\JJ	.	16ccc\JJ	.	.	.	.	.	.	.	.	.	.	.	.	.
=89	=89	=89	=89	=89	=89	=89	=89	=89	=89	=89	=89	=89	=89	=89	=89	=89	=89
!	!	!LO:TX:a:t=P:problem:takt zapisany repetycją	!	!	!	!	!	!	!	!	!	!	!	!	!	!	!
8C/L	.	16cc\LL	.	16ccc\LL	.	.	.	.	.	4g\	.	4b-\	.	4gg\	.	4bb-\	.
.	.	16cc\	.	16ccc\	.	.	.	.	.	.	.	.	.	.	.	.	.
8E/J	.	16cc\	.	16ccc\	.	.	.	.	.	.	.	.	.	.	.	.	.
.	.	16cc\	.	16ccc\JJ	.	.	.	.	.	.	.	.	.	.	.	.	.
8G\L	.	16cc\	.	16ccc\LL	.	.	.	.	.	4g\	.	4b-\	.	4gg\	.	4bb-\	.
.	.	16cc\	.	16ccc\	.	.	.	.	.	.	.	.	.	.	.	.	.
8c\	.	16cc\	.	16ccc\	.	.	.	.	.	.	.	.	.	.	.	.	.
.	.	16cc\	.	16ccc\JJ	.	.	.	.	.	.	.	.	.	.	.	.	.
8G\	.	16cc\	.	16ccc\LL	.	.	.	.	.	4g\	.	4b-\	.	4gg\	.	4bb-\	.
.	.	16cc\	.	16ccc\	.	.	.	.	.	.	.	.	.	.	.	.	.
8E\J	.	16cc\	.	16ccc\	.	.	.	.	.	.	.	.	.	.	.	.	.
.	.	16cc\JJ	.	16ccc\JJ	.	.	.	.	.	.	.	.	.	.	.	.	.
*	*	*Xtremolo	*	*Xtremolo	*	*	*	*	*	*	*	*	*	*	*	*	*
!	!	!	!	!LO:TX:b:t=Volti	!	!	!	!	!	!	!	!	!	!	!	!	!
=90	=90	=90	=90	=90	=90	=90	=90	=90	=90	=90	=90	=90	=90	=90	=90	=90	=90
!	!	!	!	!LO:PB:g=original	!	!	!	!	!	!LO:LB:g=original	!	!	!	!	!	!	!
8F\L	.	16aa\LL	.	16ccc\LL	.	.	.	.	.	4f\	.	4a\	.	4aa\	.	4ccc\	.
.	.	16aa\	.	16ccc\	.	.	.	.	.	.	.	.	.	.	.	.	.
8F\	.	16ff\	.	16aa\	.	.	.	.	.	.	.	.	.	.	.	.	.
.	.	16ff\JJ	.	16aa\JJ	.	.	.	.	.	.	.	.	.	.	.	.	.
8F\	.	16aa\LL	.	16ccc\LL	.	.	.	.	.	8f/L	.	8a\L	.	4aa\	.	4ccc\	.
.	.	16aa\	.	16ccc\	.	.	.	.	.	.	.	.	.	.	.	.	.
8F\J	.	16ff\	.	16aa\	.	.	.	.	.	8f/	.	8a\	.	.	.	.	.
.	.	16ff\JJ	.	16aa\JJ	.	.	.	.	.	.	.	.	.	.	.	.	.
8C/L	.	16aa\LL	.	16ccc\LL	.	.	.	.	.	8c/	.	8g\	.	4aa\	.	4ccc\	.
.	.	16aa\	.	16ccc\	.	.	.	.	.	.	.	.	.	.	.	.	.
8F/J	.	16ff\	.	16aa\	.	.	.	.	.	8f/J	.	8a\J	.	.	.	.	.
.	.	16ff\JJ	.	16aa\JJ	.	.	.	.	.	.	.	.	.	.	.	.	.
=91	=91	=91	=91	=91	=91	=91	=91	=91	=91	=91	=91	=91	=91	=91	=91	=91	=91
!	!	!	!	!	!	!	!	!	!	!	!	!	!	!LO:LB:g=original	!	!LO:LB:g=original	!
!	!	!	!	!	!	!LO:N:vis=0	!	!LO:N:vis=0	!	!	!	!	!	!	!	!	!
8c\L	.	16bb-\LL	.	16ddd\LL	.	1.r	.	1.r	.	4g\	.	4b-\	.	8bb-\L	.	4bb-\	.
.	.	16bb-\	.	16ddd\	.	.	.	.	.	.	.	.	.	.	.	.	.
8c\	.	16gg\	.	16bb-\	.	.	.	.	.	.	.	.	.	8gg\J	.	.	.
.	.	16gg\JJ	.	16bb-\JJ	.	.	.	.	.	.	.	.	.	.	.	.	.
*	*	*tremolo	*	*tremolo	*	*	*	*	*	*	*	*	*	*	*	*	*
8F\	.	16ff\LL	.	16aa\LL	.	.	.	.	.	4f\	.	4a\	.	4ff\	.	4aa\	.
.	.	16ff\	.	16aa\	.	.	.	.	.	.	.	.	.	.	.	.	.
8F\	.	16ff\	.	16aa\	.	.	.	.	.	.	.	.	.	.	.	.	.
.	.	16ff\	.	16aa\	.	.	.	.	.	.	.	.	.	.	.	.	.
8F\	.	16ff\	.	16aa\	.	.	.	.	.	4f\	.	4a\	.	4ff\	.	4aa\	.
.	.	16ff\	.	16aa\	.	.	.	.	.	.	.	.	.	.	.	.	.
8A\J	.	16ff\	.	16aa\	.	.	.	.	.	.	.	.	.	.	.	.	.
.	.	16ff\JJ	.	16aa\JJ	.	.	.	.	.	.	.	.	.	.	.	.	.
=92	=92	=92	=92	=92	=92	=92	=92	=92	=92	=92	=92	=92	=92	=92	=92	=92	=92
!LO:LB:g=original	!	!	!	!	!	!	!	!	!	!	!	!	!	!	!	!	!
8c\L	.	16ee\LL	.	16gg\LL	.	.	.	.	.	8c/L	.	8g\L	.	8ee\L	.	8gg\L	.
.	.	16ee\	.	16gg\	.	.	.	.	.	.	.	.	.	.	.	.	.
8c\	.	16ee\	.	16gg\	.	.	.	.	.	8f/J	.	8a\J	.	8ff\J	.	8aa\J	.
.	.	16ee\	.	16gg\	.	.	.	.	.	.	.	.	.	.	.	.	.
8c\	.	16ee\	.	16gg\	.	.	.	.	.	4g\	.	4b-\	.	4gg\	.	4bb-\	.
.	.	16ee\	.	16gg\	.	.	.	.	.	.	.	.	.	.	.	.	.
8c\J	.	16ee\	.	16gg\	.	.	.	.	.	.	.	.	.	.	.	.	.
.	.	16ee\	.	16gg\	.	.	.	.	.	.	.	.	.	.	.	.	.
*Xtremolo	*	*	*	*	*	*	*	*	*	*	*	*	*	*	*	*	*
8C/L	.	16ee\	.	16gg\	.	.	.	.	.	4c/	.	4g\	.	4ee\	.	4gg\	.
.	.	16ee\	.	16gg\	.	.	.	.	.	.	.	.	.	.	.	.	.
8C/J	.	16ee\	.	16gg\	.	.	.	.	.	.	.	.	.	.	.	.	.
.	.	16ee\JJ	.	16gg\JJ	.	.	.	.	.	.	.	.	.	.	.	.	.
*	*	*Xtremolo	*	*Xtremolo	*	*	*	*	*	*	*	*	*	*	*	*	*
=93	=93	=93	=93	=93	=93	=93	=93	=93	=93	=93	=93	=93	=93	=93	=93	=93	=93
!	!	!	!	!	!	!	!	!	!	!	!	!LO:LB:g=original	!	!	!	!	!
4F\	.	8a/L	.	8ff\L	.	2.r	.	2.r	.	4A/	.	4f\	.	8ff\L	.	4aa\	.
.	.	8a/J	.	8ff\J	.	.	.	.	.	.	.	.	.	8ff\	.	.	.
4A\	.	8ff\L	.	8aa\L	.	.	.	.	.	8f\L	.	8a\L	.	8ff\	.	8aa\L	.
.	.	8aa\	.	8ccc\	.	.	.	.	.	8a\	.	8cc\	.	8aa\	.	8ccc\	.
4c\	.	8ff\	.	8aa\	.	.	.	.	.	8f\	.	8a\	.	8ff\	.	8aa\	.
!	!	!	!	!	!	!LO:TX:a:t=P:problem:podwójna kreska po t.93,a nie po 94, jak w innych głosach	!	!LO:TX:a:t=P:problem:podwójna kreska po t.93,a nie po 94, jak w innych głosach	!	!	!	!	!	!	!	!	!
.	.	8aa\J	.	8ccc\J	.	.	.	.	.	8a\J	.	8cc\J	.	8aa\J	.	8ccc\J	.
=94	=94	=94	=94	=94	=94	=94	=94	=94	=94	=94	=94	=94	=94	=94	=94	=94	=94
!	!	!LO:LB:g=original	!	!	!	!LO:LB:g=original	!	!	!	!	!	!	!	!	!	!	!
!	!	!	!	!	!	!LO:N:vis=0	!	!	!	!	!	!	!	!	!	!	!
4F\	.	4ff 4cc 4f/	.	4aa 4cc 4f/	.	1.r	.	4r	.	4f\	.	4a\	.	4ff\	.	4aa\	.
8A\L	.	4r	.	4r	.	.	.	4r	.	4r	.	4r	.	4r	.	4r	.
8G\	.	.	.	.	.	.	.	.	.	.	.	.	.	.	.	.	.
8F\	.	4r	.	4r	.	.	.	4a\	Te	4r	.	4r	.	4r	.	4r	.
!	!	!	!	!	!	!	!	!	!	!	!	!	!	!LO:TX:b:t=Segue	!	!	!
8E\J	.	.	.	.	.	.	.	.	.	.	.	.	.	.	.	.	.
=95||	=95||	=95||	=95||	=95||	=95||	=95||	=95||	=95||	=95||	=95||	=95||	=95||	=95||	=95||	=95||	=95||	=95||
!	!	!	!	!LO:LB:g=original	!	!	!	!LO:LB:g=original	!	!	!	!	!	!LO:PB:g=original	!	!	!
!	!	!	!LO:DY:a	!	!LO:DY:b:t=pianiſ	!	!	!	!	!LO:N:vis=00	!	!LO:N:vis=00	!	!	!LO:DY:a	!	!LO:DY:a
4D\	.	4f/	p	4dd\	pp	.	.	4dd\	la-	0.r	.	0.r	.	4f/	p	4dd\	p
4F\	.	4f/	.	4dd\	.	.	.	4dd\	-u-	.	.	.	.	4f/	.	4dd\	.
4E\	.	4f/	.	4dd\	.	.	.	4dd\	-dat	.	.	.	.	4f/	.	4dd\	.
=96	=96	=96	=96	=96	=96	=96	=96	=96	=96	=96	=96	=96	=96	=96	=96	=96	=96
8D/L	.	4f/	.	4dd\	.	2.r	.	4dd\	om-	.	.	.	.	4f/	.	4dd\	.
8D/	.	.	.	.	.	.	.	.	.	.	.	.	.	.	.	.	.
8AA/	.	4e/	.	4cc#X\	.	.	.	4cc#X\	.	.	.	.	.	4e/	.	4cc#X\	.
8AA/	.	.	.	.	.	.	.	.	.	.	.	.	.	.	.	.	.
8D/	.	4f/	.	4dd\	.	.	.	4dd\	-nis	.	.	.	.	4f/	.	4dd\	.
8D/J	.	.	.	.	.	.	.	.	.	.	.	.	.	.	.	.	.
=97	=97	=97	=97	=97	=97	=97	=97	=97	=97	=97	=97	=97	=97	=97	=97	=97	=97
!	!	!	!	!	!	!	!	!	!	!	!	!	!	!	!	!LO:LB:g=original	!
*tremolo	*	*tremolo	*	*	*	*	*	*	*	*	*	*	*	*	*	*	*
8A\L	.	8cc#X\L	.	4ee\	.	4r	.	4ee\	Cre-	.	.	.	.	4cc#X\	.	4ee\	.
8A\	.	8cc#\	.	.	.	.	.	.	.	.	.	.	.	.	.	.	.
8A\	.	8cc#\	.	4ff\	.	4r	.	4ff\	.	.	.	.	.	4dd\	.	4ff\	.
8A\	.	8cc#\	.	.	.	.	.	.	.	.	.	.	.	.	.	.	.
8A\	.	8cc#\	.	4gg\	.	4a\	Te	4gg\	-a-	.	.	.	.	4ee\	.	4gg\	.
8A\J	.	8cc#\J	.	.	.	.	.	.	.	.	.	.	.	.	.	.	.
*Xtremolo	*	*Xtremolo	*	*	*	*	*	*	*	*	*	*	*	*	*	*	*
=98	=98	=98	=98	=98	=98	=98	=98	=98	=98	=98	=98	=98	=98	=98	=98	=98	=98
!LO:LB:g=original	!	!	!	!	!	!	!	!	!	!	!	!	!	!	!	!	!
4d\	.	4dd\	.	4ff\	.	4dd\	la-	4ff\	-tu-	.	.	.	.	4dd\	.	4gg\	.
4D/	.	4dd\	.	4ff\	.	4dd\	-u-	4ff\	-ra	.	.	.	.	4dd\	.	4ff\	.
4D/	.	4dd\	.	4ff\	.	4dd\	-dat	4ff\	te	.	.	.	.	4dd\	.	4ff\	.
=99	=99	=99	=99	=99	=99	=99	=99	=99	=99	=99	=99	=99	=99	=99	=99	=99	=99
!	!	!LO:TX:a:t=P:problem:korekta na 2.dd tremolo	!	!	!	!	!	!	!	!LO:N:vis=00	!	!LO:N:vis=00	!	!	!	!	!
4d\	.	4dd\	.	4ff\	.	4dd\	te	4ff\	lau-	0.r	.	0.r	.	4dd\	.	4ff\	.
4D/	.	4dd\	.	4ff\	.	4dd\	lau-	4ff\	-dat	.	.	.	.	4dd\	.	4ff\	.
4D/	.	4dd\	.	4ff\	.	4dd\	-dat	4ff\	o-	.	.	.	.	4dd\	.	4ff\	.
!	!	!	!	!LO:TX:a:t=so	!	!	!	!	!	!	!	!	!	!	!	!	!
=100	=100	=100	=100	=100	=100	=100	=100	=100	=100	=100	=100	=100	=100	=100	=100	=100	=100
8D/L	.	4dd\	.	4ff\	.	4dd\	om-	4ff\	om-	.	.	.	.	4dd\	.	4ff\	.
8D/	.	.	.	.	.	.	.	.	.	.	.	.	.	.	.	.	.
8AA/	.	4cc#X\	.	4ee\	.	4cc#X\	.	4ee\	.	.	.	.	.	4cc#X\	.	4ee\	.
8AA/	.	.	.	.	.	.	.	.	.	.	.	.	.	.	.	.	.
8D/	.	4dd\	.	4ff\	.	4dd\	-nis	4ff\	-nis	.	.	.	.	4dd\	.	4ff\	.
8D/J	.	.	.	.	.	.	.	.	.	.	.	.	.	.	.	.	.
=101	=101	=101	=101	=101	=101	=101	=101	=101	=101	=101	=101	=101	=101	=101	=101	=101	=101
!	!	!LO:PB:g=original	!	!	!	!	!	!LO:PB:g=original	!	!	!	!	!	!	!	!	!
*tremolo	*	*	*	*	*	*	*	*	*	*	*	*	*	*	*	*	*
8A\L	.	4cc#X\	.	4ee\	.	4ee\	Cre-	4gg\	Cre-	.	.	.	.	4cc#X\	.	4ee\	.
8A\	.	.	.	.	.	.	.	.	.	.	.	.	.	.	.	.	.
!	!	!	!	!	!	!	!	!	!	!	!	!	!	!	!	!LO:SIC:s=4ff:v	!
8A\	.	4dd\	.	4ff\	.	4ee\	.	4gg\	.	.	.	.	.	4ee\	.	4gg\	.
8A\	.	.	.	.	.	.	.	.	.	.	.	.	.	.	.	.	.
8A\	.	4ee\	.	4gg\	.	4ee\	-a-	4gg\	-a-	.	.	.	.	4ee\	.	4gg\	.
8A\J	.	.	.	.	.	.	.	.	.	.	.	.	.	.	.	.	.
*Xtremolo	*	*	*	*	*	*	*	*	*	*	*	*	*	*	*	*	*
=102	=102	=102	=102	=102	=102	=102	=102	=102	=102	=102	=102	=102	=102	=102	=102	=102	=102
!	!	!	!	!LO:LB:g=original	!	!LO:LB:g=original	!	!	!	!	!	!	!	!LO:LB:g=original	!	!	!
8d\L	.	8ff\L	.	8ff\L	.	4a\	-tu-	4ff\	-tu-	.	.	.	.	8ff\L	.	8ff\L	.
8d\J	.	8ff\	.	8ff\	.	.	.	.	.	.	.	.	.	8ff\	.	8ff\	.
*tremolo	*	*	*	*	*	*	*	*	*	*	*	*	*	*	*	*	*
8D\L	.	8dd\	.	8dd\	.	4f/	-ra	4dd\	-ra	.	.	.	.	8dd\	.	8dd\	.
8D\	.	8dd\	.	8dd\	.	.	.	.	.	.	.	.	.	8dd\	.	8dd\	.
8D\	.	8aa\	.	8aa\	.	4r	.	4r	.	.	.	.	.	8aa\	.	8aa\	.
8D\J	.	8dd\J	.	8dd\J	.	.	.	.	.	.	.	.	.	8dd\J	.	8dd\J	.
*Xtremolo	*	*	*	*	*	*	*	*	*	*	*	*	*	*	*	*	*
=103	=103	=103	=103	=103	=103	=103	=103	=103	=103	=103	=103	=103	=103	=103	=103	=103	=103
!	!	!	!	!	!	!	!	!	!	!	!	!	!	!	!	!LO:LB:g=original	!
!	!	!	!	!	!	!	!	!	!	!LO:N:vis=00	!	!LO:N:vis=00	!	!	!	!	!
4D\	.	4aa\	.	4aa\	.	2.r	.	4aa\	lu-	0.r	.	0.r	.	4aa\	.	4aa\	.
4F\	.	8gg\L	.	8gg\L	.	.	.	8gg\L	.	.	.	.	.	8gg\L	.	8gg\L	.
.	.	8ff\	.	8ff\	.	.	.	8ff\J	.	.	.	.	.	8ff\	.	8ff\	.
4D\	.	8ee\	.	8ee\	.	.	.	8ee\L	-cis	.	.	.	.	8ee\	.	8ee\	.
.	.	8dd\J	.	8dd\J	.	.	.	8dd\J	.	.	.	.	.	8dd\J	.	8dd\J	.
=104	=104	=104	=104	=104	=104	=104	=104	=104	=104	=104	=104	=104	=104	=104	=104	=104	=104
4A\	.	4cc#X\	.	4ee\	.	4r	.	4.cc#X\	ge-	.	.	.	.	4ee\	.	4cc#X\	.
4A\	.	4cc#\	.	4ee\	.	4r	.	.	.	.	.	.	.	4ee\	.	4cc#\	.
.	.	.	.	.	.	.	.	8cc#\	-ni-	.	.	.	.	.	.	.	.
4A\	.	4cc#\	.	4ee\	.	4aa\	Tu	4cc#\	-trix	.	.	.	.	4ee\	.	4cc#\	.
=105	=105	=105	=105	=105	=105	=105	=105	=105	=105	=105	=105	=105	=105	=105	=105	=105	=105
!LO:LB:g=original	!	!	!	!	!	!	!	!	!	!	!	!	!	!	!	!	!
4D\	.	8dd\L	.	8ff\L	.	4aa\	lu-	4dd\	ſis	.	.	.	.	8ff\L	.	8dd\L	.
.	.	8ff\	.	8aa\J	.	.	.	.	.	.	.	.	.	8aa\	.	8ff\	.
4D\	.	8ee\	.	8gg\L	.	8gg\L	.	4dd\	.	.	.	.	.	8gg\	.	8ee\	.
.	.	8dd\	.	8ff\	.	8ff\J	.	.	.	.	.	.	.	8ff\	.	8dd\	.
8F\L	.	8cc#X\	.	8ee\	.	8ee\L	.	4dd\	pro	.	.	.	.	8ee\	.	8cc#X\	.
8D\J	.	8dd\J	.	8dd\J	.	8dd\J	-cis	.	.	.	.	.	.	8dd\J	.	8dd\J	.
=106	=106	=106	=106	=106	=106	=106	=106	=106	=106	=106	=106	=106	=106	=106	=106	=106	=106
*	*	*	*	*tremolo	*	*	*	*	*	*	*	*	*	*tremolo	*	*	*
4A\	.	8cc#X\L	.	8gg\L	.	4.ee\	ge-	4gg\	no-	.	.	.	.	8gg\L	.	8cc#X\L	.
.	.	8ee\	.	8gg\	.	.	.	.	.	.	.	.	.	8gg\	.	8ee\	.
4A\	.	8ee\	.	8gg\	.	.	.	4gg\	.	.	.	.	.	8gg\	.	8ee\	.
.	.	8ee\	.	8gg\	.	8ee\	-ni-	.	.	.	.	.	.	8gg\	.	8ee\	.
4A\	.	8ee\	.	8gg\	.	4ee\	-trix	4gg\	-bis	.	.	.	.	8gg\	.	8ee\	.
.	.	8cc#\J	.	8gg\J	.	.	.	.	.	.	.	.	.	8gg\J	.	8cc#\J	.
*	*	*	*	*Xtremolo	*	*	*	*	*	*	*	*	*	*	*	*	*
=107	=107	=107	=107	=107	=107	=107	=107	=107	=107	=107	=107	=107	=107	=107	=107	=107	=107
!	!	!LO:LB:g=original	!	!	!	!	!	!LO:LB:g=original	!	!	!	!	!	!	!	!	!
!	!	!	!	!	!	!	!	!	!	!LO:N:vis=00	!	!LO:N:vis=00	!	!	!	!	!
4D\	.	4aa\	.	4aa\	.	2.r	.	4aa\	lu-	0.r	.	0.r	.	4aa\	.	4aa\	.
4F\	.	8gg\L	.	8gg\L	.	.	.	8gg\L	.	.	.	.	.	8gg\L	.	8gg\L	.
.	.	8ff\	.	8ff\	.	.	.	8ff\J	.	.	.	.	.	8ff\	.	8ff\	.
4D\	.	8ee\	.	8ee\	.	.	.	8ee\L	.	.	.	.	.	8ee\	.	8ee\	.
.	.	8dd\J	.	8dd\J	.	.	.	8dd\J	-cis	.	.	.	.	8dd\J	.	8dd\J	.
=108	=108	=108	=108	=108	=108	=108	=108	=108	=108	=108	=108	=108	=108	=108	=108	=108	=108
!	!	!	!	!LO:LB:g=original	!	!LO:LB:g=original	!	!	!	!	!	!	!	!LO:LB:g=original	!	!	!
4A\	.	4cc#X\	.	4ee\	.	4r	.	4.cc#X\	ge-	.	.	.	.	4ee\	.	4cc#X\	.
4A\	.	4cc#\	.	4ee\	.	4r	.	.	.	.	.	.	.	4ee\	.	4cc#\	.
.	.	.	.	.	.	.	.	8cc#\	-ni-	.	.	.	.	.	.	.	.
4A\	.	4cc#\	.	4ee\	.	4aa\	Tu	4cc#\	-trix	.	.	.	.	4ee\	.	4cc#\	.
=109	=109	=109	=109	=109	=109	=109	=109	=109	=109	=109	=109	=109	=109	=109	=109	=109	=109
!	!	!	!	!	!	!	!	!	!	!	!	!	!	!	!	!LO:LB:g=original	!
4D\	.	8dd\L	.	8ff\L	.	4aa\	lu-	4dd\	ge-	.	.	.	.	8ff\L	.	8dd\L	.
.	.	8ff\	.	8aa\J	.	.	.	.	.	.	.	.	.	8aa\	.	8ff\	.
4D\	.	8ee\	.	8gg\L	.	8gg\L	.	4dd\	-ni-	.	.	.	.	8gg\	.	8ee\	.
.	.	8dd\	.	8ff\	.	8ff\J	.	.	.	.	.	.	.	8ff\	.	8dd\	.
8F\L	.	8cc#X\	.	8ee\	.	8ee\L	.	4dd\	-trix	.	.	.	.	8ee\	.	8cc#X\	.
8D\J	.	8dd\J	.	8dd\J	.	8dd\J	-cis	.	.	.	.	.	.	8dd\J	.	8dd\J	.
=110	=110	=110	=110	=110	=110	=110	=110	=110	=110	=110	=110	=110	=110	=110	=110	=110	=110
*	*	*	*	*tremolo	*	*	*	*	*	*	*	*	*	*	*	*	*
4A\	.	8cc#X\L	.	8gg\L	.	4ee\	ge-	4gg\	.	.	.	.	.	8gg\L	.	8cc#X\L	.
.	.	8ee\	.	8gg\	.	.	.	.	.	.	.	.	.	8gg\	.	8ee\	.
4A\	.	8ee\	.	8gg\	.	4ee\	-ni-	4gg\	lu-	.	.	.	.	8gg\	.	8ee\	.
.	.	8ee\	.	8gg\	.	.	.	.	.	.	.	.	.	8gg\	.	8ee\	.
4A\	.	8ee\	.	8gg\	.	4ee\	-trix	4gg\	-cis	.	.	.	.	8gg\	.	8ee\	.
.	.	8cc#\J	.	8gg\J	.	.	.	.	.	.	.	.	.	8gg\J	.	8cc#\J	.
*	*	*	*	*Xtremolo	*	*	*	*	*	*	*	*	*	*	*	*	*
=111	=111	=111	=111	=111	=111	=111	=111	=111	=111	=111	=111	=111	=111	=111	=111	=111	=111
!	!	!	!	!	!	!LO:TX:a:t=P:problem:cały takt zapisany z korektą	!	!	!	!LO:N:vis=00	!	!LO:N:vis=00	!	!	!	!	!
4D\	.	8ff\L	.	8aa\L	.	8ff\L	ſis	8aa\L	ſis	0.r	.	0.r	.	8ff\L	.	8aa\L	.
.	.	8dd\	.	8ff\	.	8dd\J	pro	8ff\J	.	.	.	.	.	8dd\	.	8ff\J	.
4D\	.	8ff\	.	8aa\	.	8ff\L	.	8aa\L	pro	.	.	.	.	8ff\	.	8aa\L	.
.	.	8ff\	.	8aa\	.	8ff\	no-	8aa\	.	.	.	.	.	8ff\	.	8aa\	.
4D\	.	8ee\	.	8gg\	.	8ee\	.	8gg\	no-	.	.	.	.	8ee\	.	8gg\	.
.	.	8dd\J	.	8ff\J	.	8dd\J	-bis	8ff\J	-bis	.	.	.	.	8dd\J	.	8ff\J	.
=112	=112	=112	=112	=112	=112	=112	=112	=112	=112	=112	=112	=112	=112	=112	=112	=112	=112
!LO:LB:g=original	!	!	!	!	!	!	!	!LO:LB:g=original	!	!	!	!	!	!	!	!	!
4A\	.	4ee\	.	4gg\	.	4.cc\	quae-	4.ee\	quae-	.	.	.	.	4ee\	.	4gg\	.
4A\	.	4ee\	.	4gg\	.	.	.	.	.	.	.	.	.	4ee\	.	4gg\	.
.	.	.	.	.	.	8cc\	-su-	8ee\	-su-	.	.	.	.	.	.	.	.
4D\	.	4dd\	.	4ff\	.	4dd\	-mus	4ff\	-mus	.	.	.	.	4dd\	.	4ff\	.
=113	=113	=113	=113	=113	=113	=113	=113	=113	=113	=113	=113	=113	=113	=113	=113	=113	=113
!	!	!LO:LB:g=original	!	!	!	!LO:PB:g=original	!	!	!	!	!	!	!	!	!	!	!
8G\L	.	8ee\L	.	8gg\L	.	4ee\	per-	4gg\	per-	.	.	.	.	8ee\L	.	8gg\L	.
8B-\J	.	8ff\	.	8aa\	.	.	.	.	.	.	.	.	.	8ff\	.	8aa\	.
4A\	.	8dd\	.	8ff\	.	4dd\	-pe-	4ff\	-pe-	.	.	.	.	8dd\	.	8ff\	.
.	.	8dd\	.	8dd\	.	.	.	.	.	.	.	.	.	8dd\	.	8dd\	.
!	!	!	!	!	!	!LO:SIC:s=8cc#:v	!	!	!	!	!	!	!	!	!	!	!
4AA/	.	8cc#X\	.	8ee\	.	8cc\L	-tu-	8ee\L	-tu-	.	.	.	.	8cc#X\	.	8ee\	.
!	!	!	!	!	!	!LO:SIC:s=8cc#:v	!	!	!	!	!	!	!	!	!	!	!
.	.	8cc#\J	.	8cc#X\J	.	8cc\J	-a	8ee\J	-a	.	.	.	.	8cc#\J	.	8cc#X\J	.
=114	=114	=114	=114	=114	=114	=114	=114	=114	=114	=114	=114	=114	=114	=114	=114	=114	=114
!	!	!	!	!LO:LB:g=original	!	!	!	!	!	!	!	!	!	!LO:LB:g=original	!	!LO:LB:g=original	!
8d\L	.	8aa\L	.	8aa\L	.	4dd\	in-	4ff\	in-	.	.	.	.	8aa\L	.	8aa\L	.
8d\J	.	8aa\	.	8aa\	.	.	.	.	.	.	.	.	.	8aa\	.	8aa\	.
4D/	.	8gg\	.	8gg\	.	4f/	.	4dd\	.	.	.	.	.	8gg\	.	8gg\	.
.	.	8ff\	.	8ff\	.	.	.	.	.	.	.	.	.	8ff\	.	8ff\	.
4D/	.	8ee\	.	8ee\	.	4f/	-ter-	4dd\	-ter-	.	.	.	.	8ee\	.	8ee\	.
.	.	8dd\J	.	8dd\J	.	.	.	.	.	.	.	.	.	8dd\J	.	8dd\J	.
=115	=115	=115	=115	=115	=115	=115	=115	=115	=115	=115	=115	=115	=115	=115	=115	=115	=115
!	!	!	!	!	!	!	!	!	!	!LO:N:vis=00	!	!LO:N:vis=00	!	!	!	!	!
*	*	*	*	*tremolo	*	*	*	*	*	*	*	*	*	*	*	*	*
4A\	.	8ee\L	.	8gg\L	.	4cc\	-ven-	4ee\	-ven-	0.r	.	0.r	.	8ee\L	.	2gg\	.
.	.	8ee\	.	8gg\	.	.	.	.	.	.	.	.	.	8ee\	.	.	.
4G\	.	8ee\	.	8gg\	.	4cc\	-trix	4ee\	.	.	.	.	.	8ee\	.	.	.
.	.	8ee\	.	8gg\J	.	.	.	.	.	.	.	.	.	8ee\J	.	.	.
*	*	*	*	*Xtremolo	*	*	*	*	*	*	*	*	*	*Xtremolo	*	*	*
8F\L	.	8dd\	.	8ff\L	.	4dd\	ad	4ff\	-trix	.	.	.	.	8dd\L	.	4ff\	.
8D\J	.	8dd\J	.	8ff\J	.	.	.	.	.	.	.	.	.	8dd\J	.	.	.
=116	=116	=116	=116	=116	=116	=116	=116	=116	=116	=116	=116	=116	=116	=116	=116	=116	=116
8G\L	.	4ee\	.	4gg\	.	4.ee\	Do-	4gg\	ad	.	.	.	.	4ee\	.	4gg\	.
8B-\J	.	.	.	.	.	.	.	.	.	.	.	.	.	.	.	.	.
4A\	.	4dd\	.	4ff\	.	.	.	4ff\	Do-	.	.	.	.	4dd\	.	4ff\	.
.	.	.	.	.	.	8dd\	-mi-	.	.	.	.	.	.	.	.	.	.
!	!	!	!	!	!	!LO:SIC:s=4cc#:v	!	!	!	!	!	!	!	!	!	!	!
4AA/	.	4cc#X\	.	4ee\	.	4cc\	-nu(m)	8ee\L	-mi-	.	.	.	.	4cc#X\	.	4ee\	.
.	.	.	.	.	.	.	.	8ee\J	-nu(m)	.	.	.	.	.	.	.	.
=117	=117	=117	=117	=117	=117	=117	=117	=117	=117	=117	=117	=117	=117	=117	=117	=117	=117
*tremolo	*	*	*	*	*	*	*	*	*	*	*	*	*	*	*	*	*
8D\L	.	8dd\L	.	8dd\L	.	4a\	Je-	4dd\	.	.	.	.	.	4dd\	.	4dd\	.
8D\	.	8ff\J	.	8ddd\J	.	.	.	.	.	.	.	.	.	.	.	.	.
*	*	*tremolo	*	*tremolo	*	*	*	*	*	*	*	*	*	*	*	*	*
8D\	.	8ff\L	.	8ddd\L	.	4dd\	.	4ff\	Je-	.	.	.	.	4r	.	4r	.
8D\	.	8ff\	.	8ddd\	.	.	.	.	.	.	.	.	.	.	.	.	.
8D\	.	8ff\	.	8ddd\	.	4dd\	-sum	4ff\	-sum	.	.	.	.	4r	.	4r	.
8D\J	.	8ff\J	.	8ddd\J	.	.	.	.	.	.	.	.	.	.	.	.	.
*Xtremolo	*	*	*	*	*	*	*	*	*	*	*	*	*	*	*	*	*
=118	=118	=118	=118	=118	=118	=118	=118	=118	=118	=118	=118	=118	=118	=118	=118	=118	=118
!LO:LB:g=original	!	!	!	!	!	!	!	!LO:LB:g=original	!	!	!	!	!	!	!	!	!
!LO:TX:t=P:problem:mixed beam	!	!	!	!	!	!	!	!	!	!	!	!	!	!LO:N:vis=00	!	!LO:N:vis=00	!
8G\L	.	8ff\L	.	8ddd\L	.	2cc#X\	Chri-	2ee\	Chri-	.	.	.	.	0.r	.	0.r	.
8G\	.	8ff\	.	8ddd\	.	.	.	.	.	.	.	.	.	.	.	.	.
8A\	.	8ff\	.	8ddd\	.	.	.	.	.	.	.	.	.	.	.	.	.
8A\	.	8ff\J	.	8ddd\J	.	.	.	.	.	.	.	.	.	.	.	.	.
*	*	*Xtremolo	*	*Xtremolo	*	*	*	*	*	*	*	*	*	*	*	*	*
8AA/	.	8ee\L	.	8ccc#X\L	.	4cc#\	-stum	4ee\	-stum	.	.	.	.	.	.	.	.
8AA/J	.	8ee\J	.	8ccc#\J	.	.	.	.	.	.	.	.	.	.	.	.	.
=119	=119	=119	=119	=119	=119	=119	=119	=119	=119	=119	=119	=119	=119	=119	=119	=119	=119
!	!	!LO:LB:g=original	!	!	!	!LO:LB:g=original	!	!	!	!	!	!	!	!	!	!	!
!	!	!	!	!	!	!LO:TX:a:t=P:problem:trzy kolejne takty z korektą	!	!	!	!LO:N:vis=0	!	!LO:N:vis=0	!	!	!	!	!
*tremolo	*	*	*	*	*	*	*	*	*	*	*	*	*	*	*	*	*
8D\L	.	8dd\L	.	8dd\L	.	4dd\	Je-	4dd\	Je-	1.r	.	1.r	.	.	.	.	.
8D\	.	8ff\J	.	8ddd\J	.	.	.	.	.	.	.	.	.	.	.	.	.
*	*	*tremolo	*	*tremolo	*	*	*	*	*	*	*	*	*	*	*	*	*
8D\	.	8ff\L	.	8ddd\L	.	4dd\	.	4ff\	-sum	.	.	.	.	.	.	.	.
8D\	.	8ff\	.	8ddd\	.	.	.	.	.	.	.	.	.	.	.	.	.
8D\	.	8ff\	.	8ddd\	.	4dd\	-sum	4ff\	.	.	.	.	.	.	.	.	.
8D\J	.	8ff\J	.	8ddd\J	.	.	.	.	.	.	.	.	.	.	.	.	.
*Xtremolo	*	*	*	*	*	*	*	*	*	*	*	*	*	*	*	*	*
=120	=120	=120	=120	=120	=120	=120	=120	=120	=120	=120	=120	=120	=120	=120	=120	=120	=120
!	!	!	!	!LO:LB:g=original	!	!	!	!	!	!	!	!	!	!	!	!	!
!LO:TX:t=P:problem:mixed beam	!	!	!	!	!	!LO:TX:a:t=cis	!	!	!	!	!	!	!	!	!	!	!
8G\L	.	8ff\L	.	8ddd\L	.	2cc#X\	Chri-	2ee\	Chris-	.	.	.	.	.	.	.	.
8G\	.	8ff\	.	8ddd\	.	.	.	.	.	.	.	.	.	.	.	.	.
8A\	.	8ff\	.	8ddd\	.	.	.	.	.	.	.	.	.	.	.	.	.
8A\	.	8ff\J	.	8ddd\J	.	.	.	.	.	.	.	.	.	.	.	.	.
*	*	*Xtremolo	*	*Xtremolo	*	*	*	*	*	*	*	*	*	*	*	*	*
8AA/	.	8ee\L	.	8ccc#X\L	.	4cc#\	.	4ee\	.	.	.	.	.	.	.	.	.
8AA/J	.	8ee\J	.	8ccc#\J	.	.	.	.	.	.	.	.	.	.	.	.	.
=121	=121	=121	=121	=121	=121	=121	=121	=121	=121	=121	=121	=121	=121	=121	=121	=121	=121
!	!	!	!	!	!	!LO:TX:a:t=a	!	!	!	!	!	!	!	!	!	!	!
8D/L	.	4dd\	.	4ddd\	.	4a\	-stum	4dd\	-tum.	2.r	.	2.r	.	.	.	.	.
8D/	.	.	.	.	.	.	.	.	.	.	.	.	.	.	.	.	.
8C/	.	4r	.	4r	.	4r	.	4r	.	.	.	.	.	.	.	.	.
8BB-/	.	.	.	.	.	.	.	.	.	.	.	.	.	.	.	.	.
8AA/	.	4r	.	4r	.	4r	.	4r	.	.	.	.	.	.	.	.	.
!LO:TX:b:i:t=Da Capo al\n Segno&colon;	!	!LO:TX:b:i:t=Da Capo al Segno.	!	!LO:TX:b:i:t=Da Capo al Segno.	!	!LO:TX:b:i:t=Da Capo al Segno.	!	!LO:TX:b:i:t=Da Capo al\n Segno&colon;	!	!LO:TX:b:i:t=Da Capo\n al Segno:	!	!LO:TX:b:i:t=Da Capo	!	!LO:TX:b:Bi:t=Da Capo	!	!LO:TX:b:t=Da Capo al\nSegno:	!
8GG/J	.	.	.	.	.	.	.	.	.	.	.	.	.	.	.	.	.
==	==	==	==	==	==	==	==	==	==	==	==	==	==	==	==	==	==
*-	*-	*-	*-	*-	*-	*-	*-	*-	*-	*-	*-	*-	*-	*-	*-	*-	*-
!!!system-decoration: [g1][g2][g3][g4]
!!!RDF**kern: > = above
!!!RDF**kern: < = below
!!!RDF**dynam: p = "po"
!!!RDF**dynam: f ="for."
!!!ENC: Marta Chmielewska
!!!END: 2020-04-27
!!!ENC: Marta Lawrence
!!!END: 2020-06-30
